kevin-ortega2724/Repositorio_ROS/src/vision/Datos/capturas/waypoints.csv
shoulder_pan_joint,shoulder_lift_joint,elbow_joint,wrist_1_joint,wrist_2_joint,wrist_3_joint
0,-2.51327412287183,-2,179.415996140391,65.9276898604399,163.547930120997
0,-2.51327412287183,-2.0943951023932,114.854570319514,18.8124864982498,140.431417803394
0,-2.51327412287183,-1.83259571459405,158.789946046218,27.8844535699087,144.209965472011
0,-2.51327412287183,-1.5707963267949,37.0635982115248,74.9529874133868,52.4993051508986
0,-2.51327412287183,-1.30899693899575,35.3353819339906,64.2850540034843,90.5728949089179
0,-2.51327412287183,2,3.32162786745045,120.978712691943,55.0695539037588
0,-2.51327412287183,2.0943951023932,39.3833106020813,154.495402997642,32.1908623854377
0,-2.51327412287183,1.83259571459405,34.1283707561275,6.39334129795082,179.750816858106
0,-2.51327412287183,1.5707963267949,94.9303862137502,17.0862213876492,57.9865461546256
0,-2.51327412287183,1.30899693899575,67.643547282533,8.8239089970721,115.783944270347
0,-2.30383461263251,-2,70.5707968609495,54.3307210858561,115.303990428438
0,-2.30383461263251,-2.0943951023932,176.606790965467,88.6093479688705,94.0604042800107
0,-2.30383461263251,-1.83259571459405,80.0248027979019,20.4200817313971,158.648199066656
0,-2.30383461263251,-1.5707963267949,135.755325885867,84.909214706585,62.0590826186276
0,-2.30383461263251,-1.30899693899575,99.4496657858215,169.751692048942,156.122070733653
0,-2.30383461263251,2,54.951480226742,153.867423983363,93.6437705062046
0,-2.30383461263251,2.0943951023932,174.385751968481,71.8915897042147,108.833163254541
0,-2.30383461263251,1.83259571459405,165.114154354067,153.709099982451,4.68502211093732
0,-2.30383461263251,1.5707963267949,2.09081779888663,38.38389641267,160.959085506125
0,-2.30383461263251,1.30899693899575,119.499225714538,109.062355080024,16.0012397794351
0,-2.0943951023932,-2,93.8130095377543,124.874134693502,75.1173009393375
0,-2.0943951023932,-2.0943951023932,149.175596307091,47.919133410198,139.284991727631
0,-2.0943951023932,-1.83259571459405,79.2807373826465,5.66391885238471,50.457243473376
0,-2.0943951023932,-1.5707963267949,52.0072780402395,56.9857215649388,140.300360690831
0,-2.0943951023932,-1.30899693899575,22.4852776427203,5.93877081634854,92.1784922309079
0,-2.0943951023932,2,101.865536936829,34.6600029435674,59.2592418520417
0,-2.0943951023932,2.0943951023932,122.747876603337,60.2424014732256,51.4555021219808
0,-2.0943951023932,1.83259571459405,3.37062248099796,124.429598061687,29.9848172968566
0,-2.0943951023932,1.5707963267949,147.579089146769,155.715359923912,175.270617980298
0,-2.0943951023932,1.30899693899575,49.6524954652402,18.1057928297908,29.7627687389646
0,-1.88495559215388,-2,38.1850794664242,67.9754894875524,95.1733802532666
0,-1.88495559215388,-2.0943951023932,80.4810579160044,120.583820449596,95.5529001588733
0,-1.88495559215388,-1.83259571459405,1.07366779147745,125.013380561334,15.4304905524936
0,-1.88495559215388,-1.5707963267949,121.550993124314,17.8457833865147,114.756965259718
0,-1.88495559215388,-1.30899693899575,148.604498797608,10.1376799421507,42.0547435207385
0,-1.88495559215388,2,105.011480038489,71.5693847334285,33.0996219588037
0,-1.88495559215388,2.0943951023932,52.3343209381927,165.875530531039,148.05281585184
0,-1.88495559215388,1.83259571459405,34.2594249066467,122.987078507108,32.0321358640676
0,-1.88495559215388,1.5707963267949,5.29723200841133,63.822207248482,172.736430481009
0,-1.88495559215388,1.30899693899575,94.7149870496387,115.072627887866,146.279488337348
0,-1.67551608191456,-2,57.334725638612,41.0968183193078,61.1348494155725
0,-1.67551608191456,-2.0943951023932,68.1018106049407,150.731308322981,170.700056916704
0,-1.67551608191456,-1.83259571459405,147.273451636755,157.501452524829,139.866665972162
0,-1.67551608191456,-1.5707963267949,152.246934038907,43.4332539055019,177.611974104716
0,-1.67551608191456,-1.30899693899575,96.7977963263462,143.926755477606,2.64410152397128
0,-1.67551608191456,2,160.091888353694,83.0165516639306,134.418658091231
0,-1.67551608191456,2.0943951023932,148.580395476855,37.004696553186,149.436843492603
0,-1.67551608191456,1.83259571459405,100.860138625837,17.5832676608896,118.642182966009
0,-1.67551608191456,1.5707963267949,97.6011239689404,134.380210910022,117.968933998552
0,-1.67551608191456,1.30899693899575,43.6654787394007,112.166565003068,142.210737941803
0,-1.46607657167524,-2,25.0496469885653,19.5483336431267,8.56583258006691
0,-1.46607657167524,-2.0943951023932,37.6622418248216,95.0544415491376,159.163230936677
0,-1.46607657167524,-1.83259571459405,81.0415364373974,33.3104078746671,136.826326741401
0,-1.46607657167524,-1.5707963267949,178.835823727357,131.779166177367,166.47223708195
0,-1.46607657167524,-1.30899693899575,174.455429062219,51.490904119891,51.1041142066655
0,-1.46607657167524,2,116.344661141926,158.807774292017,62.6886311909665
0,-1.46607657167524,2.0943951023932,149.431509831416,78.9240052586317,143.940987657996
0,-1.46607657167524,1.83259571459405,159.879091151005,82.6502349536762,172.283332827718
0,-1.46607657167524,1.5707963267949,13.5931184964862,25.4594902855615,86.048767631677
0,-1.46607657167524,1.30899693899575,118.082636178771,110.310597356539,136.288615834107
0,-1.25663706143592,-2,179.790321129952,167.337375872594,35.3838289106177
0,-1.25663706143592,-2.0943951023932,153.453713372324,94.0891181430163,152.557999746323
0,-1.25663706143592,-1.83259571459405,160.296126202425,74.8709190792589,160.500917928454
0,-1.25663706143592,-1.5707963267949,138.633062038051,99.9966121380467,57.3240104803053
0,-1.25663706143592,-1.30899693899575,9.03221842224976,175.860818264429,37.2535409389714
0,-1.25663706143592,2,38.1576606684293,17.0966204839133,159.765673776009
0,-1.25663706143592,2.0943951023932,74.4377518435364,21.7988398128832,178.422318013807
0,-1.25663706143592,1.83259571459405,9.58305206681503,126.434406350297,19.1863667113596
0,-1.25663706143592,1.5707963267949,156.082041971825,172.045206855722,111.228970550228
0,-1.25663706143592,1.30899693899575,111.948096799201,17.0617718374942,118.013538885681
0,-1.0471975511966,-2,55.9817626594798,139.40739763226,74.2888478609134
0,-1.0471975511966,-2.0943951023932,123.591598809289,137.784175134431,133.111797204025
0,-1.0471975511966,-1.83259571459405,63.2253821114156,87.5139711765072,47.7851430418086
0,-1.0471975511966,-1.5707963267949,90.5409674035767,173.294445660774,176.761128157815
0,-1.0471975511966,-1.30899693899575,141.80789102587,141.009133103881,50.1910906309648
0,-1.0471975511966,2,35.1669647531818,8.92523639476,82.2270488738063
0,-1.0471975511966,2.0943951023932,92.908934980367,113.516933972683,160.303769308346
0,-1.0471975511966,1.83259571459405,76.1328745851883,124.751600426744,74.6895389672342
0,-1.0471975511966,1.5707963267949,132.210418098997,77.626727888408,147.404715980786
0,-1.0471975511966,1.30899693899575,162.486589083508,152.536716487717,107.873920046508
0,-0.837758040957278,-2,84.5523364825717,53.5476207845976,134.800566154916
0,-0.837758040957278,-2.0943951023932,19.1280971057635,68.2871798147373,67.535895241844
0,-0.837758040957278,-1.83259571459405,174.086436066241,0.51119306234636,11.1449690814828
0,-0.837758040957278,-1.5707963267949,26.7636199535688,134.618243607606,112.189113140851
0,-0.837758040957278,-1.30899693899575,62.8168678362717,116.114073736094,146.568265467752
0,-0.837758040957278,2,14.5586669095723,7.25951015080337,170.716141259195
0,-0.837758040957278,2.0943951023932,164.064728595139,140.581476619498,113.053438439509
0,-0.837758040957278,1.83259571459405,137.381401302795,172.261995888896,30.0270228484396
0,-0.837758040957278,1.5707963267949,158.820662009635,165.602372782291,17.6502275224527
0,-0.837758040957278,1.30899693899575,62.5676782363786,11.3914957102342,93.0494924666354
0.785398163397448,-2.51327412287183,-2,17.590095771898,13.8975153990613,48.048411622132
0.785398163397448,-2.51327412287183,-2.0943951023932,19.7387085402875,165.526735545709,175.404900991895
0.785398163397448,-2.51327412287183,-1.83259571459405,131.27956920364,81.176168885154,64.2157842066318
0.785398163397448,-2.51327412287183,-1.5707963267949,110.884447890213,158.009366398902,94.757660666302
0.785398163397448,-2.51327412287183,-1.30899693899575,94.7224659355291,93.0114385112789,6.34440962355213
0.785398163397448,-2.51327412287183,2,20.7098428873805,43.1343762737729,108.20582676631
0.785398163397448,-2.51327412287183,2.0943951023932,154.42077179562,22.2438101686592,45.6923308222868
0.785398163397448,-2.51327412287183,1.83259571459405,90.7425091464175,116.733836234687,169.102087985324
0.785398163397448,-2.51327412287183,1.5707963267949,146.488786979524,93.890369344518,14.7468883023867
0.785398163397448,-2.51327412287183,1.30899693899575,97.2906516541,79.5924116037692,119.234622742426
0.785398163397448,-2.30383461263251,-2,144.18576604773,61.1767261840294,157.138593158112
0.785398163397448,-2.30383461263251,-2.0943951023932,119.265128287337,79.5994740314837,78.7135834898968
0.785398163397448,-2.30383461263251,-1.83259571459405,157.678619967211,98.4542483126332,73.6559264107161
0.785398163397448,-2.30383461263251,-1.5707963267949,146.700742727897,28.6983633842103,57.820156887225
0.785398163397448,-2.30383461263251,-1.30899693899575,93.0718739010372,149.898007249546,166.96922808076
0.785398163397448,-2.30383461263251,2,120.17638864096,82.3239884025346,138.010403758242
0.785398163397448,-2.30383461263251,2.0943951023932,17.5037197519144,147.928324279155,176.152046238686
0.785398163397448,-2.30383461263251,1.83259571459405,121.79800946913,147.275675990135,99.8451425209963
0.785398163397448,-2.30383461263251,1.5707963267949,171.978706651517,107.669114882674,98.7215608757942
0.785398163397448,-2.30383461263251,1.30899693899575,46.7385149119378,7.46029848263868,13.1821107338124
0.785398163397448,-2.0943951023932,-2,98.6707042076191,89.8196137201149,66.6502679714104
0.785398163397448,-2.0943951023932,-2.0943951023932,61.0484312291528,148.5455698143,6.03242529059099
0.785398163397448,-2.0943951023932,-1.83259571459405,165.49242043375,28.1859944106192,32.8622195276955
0.785398163397448,-2.0943951023932,-1.5707963267949,64.3197525698097,117.993001149443,63.0206464298736
0.785398163397448,-2.0943951023932,-1.30899693899575,160.623205808938,69.5154061040146,2.10461103479154
0.785398163397448,-2.0943951023932,2,122.546706790751,32.5168256700108,77.8774939284693
0.785398163397448,-2.0943951023932,2.0943951023932,129.786312347788,118.425078297353,72.1032829707279
0.785398163397448,-2.0943951023932,1.83259571459405,61.2303307369422,112.594162424471,33.2901783548146
0.785398163397448,-2.0943951023932,1.5707963267949,107.035716105738,96.199284031583,48.5064382618649
0.785398163397448,-2.0943951023932,1.30899693899575,52.9725524273846,91.0889749082275,174.956177189215
0.785398163397448,-1.88495559215388,-2,150.287199167087,118.948741490138,64.9434947098379
0.785398163397448,-1.88495559215388,-2.0943951023932,99.5908398994215,127.115270493907,62.0454260429225
0.785398163397448,-1.88495559215388,-1.83259571459405,109.40119926561,131.052489718687,82.4182271305581
0.785398163397448,-1.88495559215388,-1.5707963267949,64.1351245744821,85.0550234851543,83.5865576960819
0.785398163397448,-1.88495559215388,-1.30899693899575,77.064239924578,82.2619862858021,126.041002259085
0.785398163397448,-1.88495559215388,2,69.1399947689128,40.0547848154584,84.6957099931288
0.785398163397448,-1.88495559215388,2.0943951023932,1.29293476863986,17.2979780727627,15.47801637565
0.785398163397448,-1.88495559215388,1.83259571459405,162.779302982196,92.6788357158456,126.312535175757
0.785398163397448,-1.88495559215388,1.5707963267949,120.830181774242,177.360816456468,105.480696964555
0.785398163397448,-1.88495559215388,1.30899693899575,25.6029430795091,30.174092558148,144.465903147058
0.785398163397448,-1.67551608191456,-2,85.1258400363912,56.7889736738702,36.7490060270204
0.785398163397448,-1.67551608191456,-2.0943951023932,118.37528919621,112.075590368013,19.8737373140137
0.785398163397448,-1.67551608191456,-1.83259571459405,29.2096987219644,76.2548191673601,38.447049472858
0.785398163397448,-1.67551608191456,-1.5707963267949,43.3868159882714,23.0546533546638,175.509957440951
0.785398163397448,-1.67551608191456,-1.30899693899575,73.2296225005724,137.945263826914,66.3308252476865
0.785398163397448,-1.67551608191456,2,78.3899695181236,1.43320941882945,179.461945032794
0.785398163397448,-1.67551608191456,2.0943951023932,25.3056598611323,85.2160004719699,167.611838782112
0.785398163397448,-1.67551608191456,1.83259571459405,67.3069447250612,89.0435793646202,152.921331352119
0.785398163397448,-1.67551608191456,1.5707963267949,62.6352358961614,98.9206536912197,167.432496574634
0.785398163397448,-1.67551608191456,1.30899693899575,157.275968829477,25.5473944181271,146.629654765441
0.785398163397448,-1.46607657167524,-2,175.692871746009,15.3988765671942,131.680458010733
0.785398163397448,-1.46607657167524,-2.0943951023932,10.7280891230018,50.6250982428203,18.5607089755726
0.785398163397448,-1.46607657167524,-1.83259571459405,97.2237397106401,155.983647817171,123.770948005343
0.785398163397448,-1.46607657167524,-1.5707963267949,73.2157055591049,155.979327646348,118.910443801501
0.785398163397448,-1.46607657167524,-1.30899693899575,23.0552180011128,103.310755154107,90.1200527556109
0.785398163397448,-1.46607657167524,2,32.0598677670999,117.940998661748,86.7195263819312
0.785398163397448,-1.46607657167524,2.0943951023932,111.72594737764,164.533333942021,129.576477960019
0.785398163397448,-1.46607657167524,1.83259571459405,73.8690947130881,146.198869014168,40.0515843934478
0.785398163397448,-1.46607657167524,1.5707963267949,93.4890728137277,42.131761814483,78.2228543530546
0.785398163397448,-1.46607657167524,1.30899693899575,48.7908767606951,33.6838853454985,121.309543440344
0.785398163397448,-1.25663706143592,-2,161.117492606098,156.775755502256,25.6076166863579
0.785398163397448,-1.25663706143592,-2.0943951023932,15.8028163179014,179.199736833624,17.7284178131535
0.785398163397448,-1.25663706143592,-1.83259571459405,35.2865413686396,76.3797479032035,115.695925845523
0.785398163397448,-1.25663706143592,-1.5707963267949,23.7480326653319,115.172283829768,80.6046681621482
0.785398163397448,-1.25663706143592,-1.30899693899575,18.3859096139655,39.140757832682,153.777819853526
0.785398163397448,-1.25663706143592,2,153.644933047716,69.5081264303562,177.817950335933
0.785398163397448,-1.25663706143592,2.0943951023932,31.8990823773138,107.518049727353,153.674476551726
0.785398163397448,-1.25663706143592,1.83259571459405,97.8800634006086,150.527211290565,35.024332767441
0.785398163397448,-1.25663706143592,1.5707963267949,92.2638492120467,52.0121631410242,78.7226403885787
0.785398163397448,-1.25663706143592,1.30899693899575,94.1124226189335,12.4894773396979,75.1750421365609
0.785398163397448,-1.0471975511966,-2,169.334905501664,106.747985851618,168.926502685204
0.785398163397448,-1.0471975511966,-2.0943951023932,11.2261564046942,134.342510796472,49.1153778039711
0.785398163397448,-1.0471975511966,-1.83259571459405,99.654559650319,26.4324541896502,72.7625081970061
0.785398163397448,-1.0471975511966,-1.5707963267949,101.30165535427,49.1149398540221,127.424307600668
0.785398163397448,-1.0471975511966,-1.30899693899575,97.4751253044398,167.586291939538,163.486407020196
0.785398163397448,-1.0471975511966,2,39.1118484152441,2.0264631598661,172.159319185445
0.785398163397448,-1.0471975511966,2.0943951023932,144.235886457529,80.4249119348238,14.8262421898941
0.785398163397448,-1.0471975511966,1.83259571459405,138.736310933327,72.2648203279363,129.451645530065
0.785398163397448,-1.0471975511966,1.5707963267949,142.846026835966,0.352415563712869,149.740853466614
0.785398163397448,-1.0471975511966,1.30899693899575,98.70991105458,149.200473017756,104.102492474342
0.785398163397448,-0.837758040957278,-2,113.117764088224,8.59922400697135,31.8778369285753
0.785398163397448,-0.837758040957278,-2.0943951023932,141.734532577348,10.3473053774861,120.209429357931
0.785398163397448,-0.837758040957278,-1.83259571459405,67.54067526315,97.097622540216,7.8167208765478
0.785398163397448,-0.837758040957278,-1.5707963267949,74.242800122949,168.86897513147,15.1507468265412
0.785398163397448,-0.837758040957278,-1.30899693899575,73.7061158464184,55.1717626032829,24.5176799812033
0.785398163397448,-0.837758040957278,2,43.6882903788901,12.538263104336,22.595473834443
0.785398163397448,-0.837758040957278,2.0943951023932,146.233804863681,125.362478329664,52.0703450745507
0.785398163397448,-0.837758040957278,1.83259571459405,55.1403703407853,111.155597281369,5.79170433112327
0.785398163397448,-0.837758040957278,1.5707963267949,160.066114511162,22.6712786535637,86.1122663657847
0.785398163397448,-0.837758040957278,1.30899693899575,59.3999324942484,61.4766097958977,44.8470874815659
1.5707963267949,-2.51327412287183,-2,162.064564972646,104.291698568417,170.66233301082
1.5707963267949,-2.51327412287183,-2.0943951023932,145.865366680074,78.9689667716971,179.156474063565
1.5707963267949,-2.51327412287183,-1.83259571459405,27.2267497474181,16.5242828829513,76.325405552019
1.5707963267949,-2.51327412287183,-1.5707963267949,148.744399428654,35.0730638652738,98.0563163062658
1.5707963267949,-2.51327412287183,-1.30899693899575,108.195135579016,155.734864268871,111.539302679206
1.5707963267949,-2.51327412287183,2,62.7979595150697,114.091634249973,39.7561005507319
1.5707963267949,-2.51327412287183,2.0943951023932,101.218106967203,5.41608991113763,57.6378038331752
1.5707963267949,-2.51327412287183,1.83259571459405,98.7647776243485,178.373990711423,53.8215845866484
1.5707963267949,-2.51327412287183,1.5707963267949,95.0392846701115,37.2404507565196,102.043934269441
1.5707963267949,-2.51327412287183,1.30899693899575,39.4337661039078,135.553760111358,119.094456986199
1.5707963267949,-2.30383461263251,-2,177.525843838672,68.0438808075546,141.247317879314
1.5707963267949,-2.30383461263251,-2.0943951023932,146.113785148752,72.7695776670197,17.0529357108459
1.5707963267949,-2.30383461263251,-1.83259571459405,98.5193287714838,54.3520963893297,114.109512015935
1.5707963267949,-2.30383461263251,-1.5707963267949,32.7991309079653,84.5846750201995,23.7470467724767
1.5707963267949,-2.30383461263251,-1.30899693899575,17.3606458710129,168.845649605687,88.1556440694829
1.5707963267949,-2.30383461263251,2,34.6922710594055,105.253936856625,47.331262492826
1.5707963267949,-2.30383461263251,2.0943951023932,10.5358675742587,161.864131093354,6.99069574626027
1.5707963267949,-2.30383461263251,1.83259571459405,167.335620536768,31.5678217560127,157.023846002462
1.5707963267949,-2.30383461263251,1.5707963267949,46.8753412210372,72.3920268767068,76.4334989120082
1.5707963267949,-2.30383461263251,1.30899693899575,116.58515719204,38.6299063262575,4.8602988002636
1.5707963267949,-2.0943951023932,-2,110.544477594044,4.80683081720384,145.391080377912
1.5707963267949,-2.0943951023932,-2.0943951023932,16.0244915797874,154.103723131827,29.6762911887652
1.5707963267949,-2.0943951023932,-1.83259571459405,70.1043240767694,95.1327019017419,104.824735714906
1.5707963267949,-2.0943951023932,-1.5707963267949,48.4817161144808,87.7418139446192,155.736959566353
1.5707963267949,-2.0943951023932,-1.30899693899575,36.76099614834,57.9426444658679,89.6507165682795
1.5707963267949,-2.0943951023932,2,13.1282323752638,93.0532163924793,167.893743252462
1.5707963267949,-2.0943951023932,2.0943951023932,34.3326592011341,62.9421907624934,73.6281004423837
1.5707963267949,-2.0943951023932,1.83259571459405,165.012090831452,125.849103119185,40.7798761633249
1.5707963267949,-2.0943951023932,1.5707963267949,107.212459542072,29.1278194726472,168.353887831226
1.5707963267949,-2.0943951023932,1.30899693899575,63.7192219883185,135.722579480934,130.587044345484
1.5707963267949,-1.88495559215388,-2,170.018959067697,167.756819212108,42.6358113003387
1.5707963267949,-1.88495559215388,-2.0943951023932,19.0960599314888,141.81438712989,167.568950159866
1.5707963267949,-1.88495559215388,-1.83259571459405,67.2053572285237,175.618965550797,87.3246814715377
1.5707963267949,-1.88495559215388,-1.5707963267949,74.6961115866703,1.61876423295874,70.3929443709686
1.5707963267949,-1.88495559215388,-1.30899693899575,147.655424535082,146.37509843623,90.1868111398501
1.5707963267949,-1.88495559215388,2,111.028604232631,108.059839997821,59.5293210811127
1.5707963267949,-1.88495559215388,2.0943951023932,134.6175959464,82.3393802867254,150.926203282428
1.5707963267949,-1.88495559215388,1.83259571459405,130.079710992052,18.884883014961,39.9469581581261
1.5707963267949,-1.88495559215388,1.5707963267949,58.806645276368,143.723420314403,61.1900859151297
1.5707963267949,-1.88495559215388,1.30899693899575,121.416634500692,60.1556749413518,62.842153281715
1.5707963267949,-1.67551608191456,-2,76.435644358982,170.152537878958,78.0108594311338
1.5707963267949,-1.67551608191456,-2.0943951023932,33.0312057773373,87.4287972040255,3.85395465286242
1.5707963267949,-1.67551608191456,-1.83259571459405,74.6750370607732,7.33186600388149,103.086853234026
1.5707963267949,-1.67551608191456,-1.5707963267949,1.10983004326561,62.1384939362323,145.443735864096
1.5707963267949,-1.67551608191456,-1.30899693899575,77.510700398137,148.965059963112,46.2186189943791
1.5707963267949,-1.67551608191456,2,137.982755948943,102.901700257337,126.155465851937
1.5707963267949,-1.67551608191456,2.0943951023932,175.16761773317,100.847641233647,58.28365481976
1.5707963267949,-1.67551608191456,1.83259571459405,144.404041808196,99.9265713400962,102.307651782855
1.5707963267949,-1.67551608191456,1.5707963267949,109.592007694409,165.628057543121,54.8999294229731
1.5707963267949,-1.67551608191456,1.30899693899575,67.4835117893918,92.2102429160679,48.8831059695198
1.5707963267949,-1.46607657167524,-2,45.9094814709798,4.65915733165101,146.914443240897
1.5707963267949,-1.46607657167524,-2.0943951023932,133.086074070824,158.691880793181,66.3495312029664
1.5707963267949,-1.46607657167524,-1.83259571459405,81.4355112659205,97.1305727624155,35.1786666278988
1.5707963267949,-1.46607657167524,-1.5707963267949,171.401275645696,145.100278190883,38.2511379883519
1.5707963267949,-1.46607657167524,-1.30899693899575,45.5518751300568,65.3572761317236,63.3812243471746
1.5707963267949,-1.46607657167524,2,28.1561533911035,70.4887537806884,106.137780623237
1.5707963267949,-1.46607657167524,2.0943951023932,122.525851448358,63.7299981565131,87.0020777787978
1.5707963267949,-1.46607657167524,1.83259571459405,111.497126377408,175.133008684448,124.255756131457
1.5707963267949,-1.46607657167524,1.5707963267949,160.862337336736,159.76188446454,29.8537957084592
1.5707963267949,-1.46607657167524,1.30899693899575,64.2246389400927,91.9005535417935,138.323037759238
1.5707963267949,-1.25663706143592,-2,76.1361817941427,25.3692877650271,171.614188687677
1.5707963267949,-1.25663706143592,-2.0943951023932,172.720727841967,94.7616594412938,143.272594563684
1.5707963267949,-1.25663706143592,-1.83259571459405,130.931515024253,158.397623214092,41.9603531740883
1.5707963267949,-1.25663706143592,-1.5707963267949,110.609009677134,5.73244735021849,136.929131025064
1.5707963267949,-1.25663706143592,-1.30899693899575,145.383276346555,54.502141001694,32.6761144938268
1.5707963267949,-1.25663706143592,2,106.124269089768,135.692632074186,179.99616709018
1.5707963267949,-1.25663706143592,2.0943951023932,95.8740502807016,165.079079467471,93.6345030475355
1.5707963267949,-1.25663706143592,1.83259571459405,14.9960692371434,109.934799505574,171.048925349701
1.5707963267949,-1.25663706143592,1.5707963267949,5.18186715325657,63.6915149111993,39.9324878874191
1.5707963267949,-1.25663706143592,1.30899693899575,87.5344096436806,80.738630768433,15.2950269253103
1.5707963267949,-1.0471975511966,-2,118.512782069727,88.43294390724,101.299595907951
1.5707963267949,-1.0471975511966,-2.0943951023932,172.213440797223,172.000858783645,9.90946361403687
1.5707963267949,-1.0471975511966,-1.83259571459405,178.942569180066,82.931826277316,70.2638656664784
1.5707963267949,-1.0471975511966,-1.5707963267949,28.6885250062601,169.627584491976,107.839385931115
1.5707963267949,-1.0471975511966,-1.30899693899575,134.167959893621,0.097614018617287,40.9861858269677
1.5707963267949,-1.0471975511966,2,36.9326780164215,78.0389390269001,33.1419201207302
1.5707963267949,-1.0471975511966,2.0943951023932,101.543102498111,87.262165228697,46.9872776229289
1.5707963267949,-1.0471975511966,1.83259571459405,61.009878970179,65.4045460995756,74.4968454188978
1.5707963267949,-1.0471975511966,1.5707963267949,105.914261898371,93.2299110838632,31.9050798153517
1.5707963267949,-1.0471975511966,1.30899693899575,57.4261554932918,86.6730767687972,148.722353676629
1.5707963267949,-0.837758040957278,-2,19.1719767053385,133.26238823461,174.404502913464
1.5707963267949,-0.837758040957278,-2.0943951023932,22.5751209741081,168.103336684185,176.69417645846
1.5707963267949,-0.837758040957278,-1.83259571459405,51.194574744649,135.838313836742,59.9385212928833
1.5707963267949,-0.837758040957278,-1.5707963267949,79.1333991191034,159.766496588421,120.981831065951
1.5707963267949,-0.837758040957278,-1.30899693899575,101.879317123556,135.000993452513,145.760646359933
1.5707963267949,-0.837758040957278,2,23.9761656831197,136.180053653141,46.1522826812777
1.5707963267949,-0.837758040957278,2.0943951023932,81.7305297556661,9.03126025219385,93.5575125211089
1.5707963267949,-0.837758040957278,1.83259571459405,8.01293469022803,146.85889045952,23.8774566174747
1.5707963267949,-0.837758040957278,1.5707963267949,127.101219477774,46.0136531815087,146.412995974925
1.5707963267949,-0.837758040957278,1.30899693899575,99.3249564134332,114.64237253756,8.17754951687751
2.35619449019234,-2.51327412287183,-2,13.0910089622273,75.4812204960671,95.4184610457688
2.35619449019234,-2.51327412287183,-2.0943951023932,44.7398999639195,99.4452575995556,97.5184889062203
2.35619449019234,-2.51327412287183,-1.83259571459405,40.4262502366588,87.2047602700103,20.9237841593698
2.35619449019234,-2.51327412287183,-1.5707963267949,95.5253372541069,132.737651579818,162.417770562554
2.35619449019234,-2.51327412287183,-1.30899693899575,70.1868453999243,109.549751826704,173.589012670902
2.35619449019234,-2.51327412287183,2,66.4313475936659,62.9145335974142,88.4958803733744
2.35619449019234,-2.51327412287183,2.0943951023932,54.0409896103988,155.070088550694,132.266124509791
2.35619449019234,-2.51327412287183,1.83259571459405,146.488059391107,33.9718100685408,1.22611325191934
2.35619449019234,-2.51327412287183,1.5707963267949,20.7121244394052,9.98126711901165,173.274457490991
2.35619449019234,-2.51327412287183,1.30899693899575,76.7701022100295,34.245257610398,140.457000951637
2.35619449019234,-2.30383461263251,-2,171.289965507261,160.042578573924,87.355517789354
2.35619449019234,-2.30383461263251,-2.0943951023932,97.5293046078259,149.766541724463,149.058800432921
2.35619449019234,-2.30383461263251,-1.83259571459405,121.84600440445,3.43915930925801,8.61018165391602
2.35619449019234,-2.30383461263251,-1.5707963267949,140.16764186218,158.726307522771,74.1795020799377
2.35619449019234,-2.30383461263251,-1.30899693899575,91.3379436879863,120.848839595882,152.140751918966
2.35619449019234,-2.30383461263251,2,148.082644269442,64.444529808967,124.516306923233
2.35619449019234,-2.30383461263251,2.0943951023932,53.2865028805441,166.572929999751,127.820240570824
2.35619449019234,-2.30383461263251,1.83259571459405,75.8393166704558,57.4227036948509,124.424230854601
2.35619449019234,-2.30383461263251,1.5707963267949,47.9678664894746,125.998844516711,19.6691839021471
2.35619449019234,-2.30383461263251,1.30899693899575,16.0824301467389,3.46218915309349,124.830187845979
2.35619449019234,-2.0943951023932,-2,75.7287555117691,52.3809425649775,101.717947477973
2.35619449019234,-2.0943951023932,-2.0943951023932,136.786427431922,158.329254710366,6.56600252324604
2.35619449019234,-2.0943951023932,-1.83259571459405,62.1082609069284,174.888383778389,30.3593906000161
2.35619449019234,-2.0943951023932,-1.5707963267949,97.7336473629798,49.7943749151258,59.0199985799663
2.35619449019234,-2.0943951023932,-1.30899693899575,12.4444940155638,80.5593220168165,102.187115481492
2.35619449019234,-2.0943951023932,2,126.706805879066,58.5565900783899,78.08861313687
2.35619449019234,-2.0943951023932,2.0943951023932,153.701129485483,32.7687330992918,5.09846934184573
2.35619449019234,-2.0943951023932,1.83259571459405,55.5947425386957,14.1318226989778,37.355603172745
2.35619449019234,-2.0943951023932,1.5707963267949,36.8950416553626,179.474591675101,5.99408148946621
2.35619449019234,-2.0943951023932,1.30899693899575,86.8378102660571,16.3434312180722,121.397510627253
2.35619449019234,-1.88495559215388,-2,85.6830238457128,162.031920034729,171.364386687719
2.35619449019234,-1.88495559215388,-2.0943951023932,4.21943578783146,129.023637930532,10.5548039411813
2.35619449019234,-1.88495559215388,-1.83259571459405,125.643136461713,84.62158964746,66.8664564351657
2.35619449019234,-1.88495559215388,-1.5707963267949,135.60372539998,161.580560313415,54.4653018809729
2.35619449019234,-1.88495559215388,-1.30899693899575,23.6091282418578,175.750383152422,122.162587678502
2.35619449019234,-1.88495559215388,2,164.469802338405,115.399469526527,84.8887831942013
2.35619449019234,-1.88495559215388,2.0943951023932,10.1604387607222,85.6998670123092,89.3387798037341
2.35619449019234,-1.88495559215388,1.83259571459405,123.85946366597,87.488153193181,88.1586934079135
2.35619449019234,-1.88495559215388,1.5707963267949,173.807869243655,129.205468440801,171.193103096967
2.35619449019234,-1.88495559215388,1.30899693899575,95.4106602389226,137.797022659503,177.84270230787
2.35619449019234,-1.67551608191456,-2,64.2165913224034,133.63940009775,144.608658945966
2.35619449019234,-1.67551608191456,-2.0943951023932,150.000292563699,53.4597210664664,138.666316953157
2.35619449019234,-1.67551608191456,-1.83259571459405,14.4908167231136,119.989745763457,68.6886926788751
2.35619449019234,-1.67551608191456,-1.5707963267949,149.108395512625,94.029597787302,87.7996499491253
2.35619449019234,-1.67551608191456,-1.30899693899575,47.1855171176086,176.59977205111,51.628720105294
2.35619449019234,-1.67551608191456,2,90.7483209395878,96.9503871179282,141.130680106555
2.35619449019234,-1.67551608191456,2.0943951023932,33.0639291299292,7.1271033877871,94.5746807579346
2.35619449019234,-1.67551608191456,1.83259571459405,134.014503953247,95.7409907654068,96.7651623065257
2.35619449019234,-1.67551608191456,1.5707963267949,26.9540062578828,96.173669458341,56.3151881991144
2.35619449019234,-1.67551608191456,1.30899693899575,161.70229110504,115.468713363035,138.632534348228
2.35619449019234,-1.46607657167524,-2,142.905743060705,125.927512586204,32.3067762478293
2.35619449019234,-1.46607657167524,-2.0943951023932,14.1626350243316,116.398931957324,150.518625729483
2.35619449019234,-1.46607657167524,-1.83259571459405,109.421980761434,97.6320746349471,54.304192952137
2.35619449019234,-1.46607657167524,-1.5707963267949,15.3381206566501,179.753796431403,112.4937112599
2.35619449019234,-1.46607657167524,-1.30899693899575,96.4274689113408,84.9000754793175,81.3265815986682
2.35619449019234,-1.46607657167524,2,103.555526456777,138.124129209901,44.1353276383818
2.35619449019234,-1.46607657167524,2.0943951023932,170.120863259661,139.46574122959,58.0231516105255
2.35619449019234,-1.46607657167524,1.83259571459405,152.948981012937,1.66751631413268,94.324891227038
2.35619449019234,-1.46607657167524,1.5707963267949,55.7059197850848,169.636890885953,146.589018755243
2.35619449019234,-1.46607657167524,1.30899693899575,98.4830902037409,108.693390577158,109.239488570423
2.35619449019234,-1.25663706143592,-2,105.027961531062,136.409773193532,11.7064030234085
2.35619449019234,-1.25663706143592,-2.0943951023932,147.893246976856,158.582191313828,120.091281850763
2.35619449019234,-1.25663706143592,-1.83259571459405,9.08862838406185,65.2018374992653,113.549834120678
2.35619449019234,-1.25663706143592,-1.5707963267949,145.443209631492,31.331691872176,43.3978214616712
2.35619449019234,-1.25663706143592,-1.30899693899575,145.64641390625,9.26847553991951,57.8806348254908
2.35619449019234,-1.25663706143592,2,61.5893111031175,97.6528447430247,177.688860285907
2.35619449019234,-1.25663706143592,2.0943951023932,57.3986213176946,46.8137102303698,55.4428616960745
2.35619449019234,-1.25663706143592,1.83259571459405,21.9826789680641,174.369395262642,115.605220668872
2.35619449019234,-1.25663706143592,1.5707963267949,167.960184847342,13.7502424603059,25.1876884977129
2.35619449019234,-1.25663706143592,1.30899693899575,146.672874017606,57.2480756802678,168.3236541559
2.35619449019234,-1.0471975511966,-2,149.993561577564,24.5544021973985,156.435629783526
2.35619449019234,-1.0471975511966,-2.0943951023932,102.438148115241,147.121242074082,13.7506348093257
2.35619449019234,-1.0471975511966,-1.83259571459405,33.4833102644495,79.0465023970315,21.1797911342455
2.35619449019234,-1.0471975511966,-1.5707963267949,70.7963354178433,140.310460495966,46.2186783236981
2.35619449019234,-1.0471975511966,-1.30899693899575,171.828008017433,166.447514957869,46.4909111978396
2.35619449019234,-1.0471975511966,2,7.92673165943712,106.06767091724,137.348539480529
2.35619449019234,-1.0471975511966,2.0943951023932,166.797429864531,72.8047521728317,74.2917399524274
2.35619449019234,-1.0471975511966,1.83259571459405,171.485077908869,171.775152747292,176.760753156163
2.35619449019234,-1.0471975511966,1.5707963267949,165.505211081683,150.502112897087,111.746088235653
2.35619449019234,-1.0471975511966,1.30899693899575,23.3685535601884,138.394082099631,29.8101341916582
2.35619449019234,-0.837758040957278,-2,171.783962493756,79.80014865718,41.3261157623488
2.35619449019234,-0.837758040957278,-2.0943951023932,56.623887489362,150.607676268446,39.8431189363845
2.35619449019234,-0.837758040957278,-1.83259571459405,5.74349869393892,147.430394468291,129.310650241768
2.35619449019234,-0.837758040957278,-1.5707963267949,101.452466604252,145.239855879969,59.3497076103431
2.35619449019234,-0.837758040957278,-1.30899693899575,95.7295335092237,175.904890671737,36.7733216268713
2.35619449019234,-0.837758040957278,2,155.326602870613,13.5172119716417,39.374308301887
2.35619449019234,-0.837758040957278,2.0943951023932,22.1055788372945,121.743181067278,166.333797854153
2.35619449019234,-0.837758040957278,1.83259571459405,163.750342988043,123.775161534547,167.15569158369
2.35619449019234,-0.837758040957278,1.5707963267949,142.004786638098,100.738927326381,37.0512080485804
2.35619449019234,-0.837758040957278,1.30899693899575,129.201970323386,175.486656458495,136.139652364611
3.14159265358979,-2.51327412287183,-2,97.6750191384748,87.4144268124629,31.6963854283184
3.14159265358979,-2.51327412287183,-2.0943951023932,89.7204387832347,105.915163452227,174.023132576623
3.14159265358979,-2.51327412287183,-1.83259571459405,58.209130426761,100.182480700454,69.7201925396042
3.14159265358979,-2.51327412287183,-1.5707963267949,149.035988110253,148.479104510528,80.5485675425614
3.14159265358979,-2.51327412287183,-1.30899693899575,45.4878625821996,135.539429332031,59.1171065692424
3.14159265358979,-2.51327412287183,2,95.5754526672384,142.830933145996,86.7156198421813
3.14159265358979,-2.51327412287183,2.0943951023932,149.692548267313,122.783487190788,59.6257915268493
3.14159265358979,-2.51327412287183,1.83259571459405,176.660068984334,113.73016442094,131.690088542727
3.14159265358979,-2.51327412287183,1.5707963267949,111.76813760128,54.9062432497563,103.377820068663
3.14159265358979,-2.51327412287183,1.30899693899575,45.2738700533611,49.5335385107355,78.9778048223964
3.14159265358979,-2.30383461263251,-2,39.5157178545069,143.349296344331,11.5728704609438
3.14159265358979,-2.30383461263251,-2.0943951023932,151.644748789768,176.894246731537,11.9799124573643
3.14159265358979,-2.30383461263251,-1.83259571459405,97.142626538616,175.910438496667,124.715533247272
3.14159265358979,-2.30383461263251,-1.5707963267949,165.236112047075,134.044155130135,122.117233665229
3.14159265358979,-2.30383461263251,-1.30899693899575,47.3206175277596,65.1695188551127,86.9457481955618
3.14159265358979,-2.30383461263251,2,165.380994449002,57.9457205146865,0.568721269152768
3.14159265358979,-2.30383461263251,2.0943951023932,172.959199963268,163.661053460037,145.066490897906
3.14159265358979,-2.30383461263251,1.83259571459405,144.91724434564,9.52821808969399,8.25375430624877
3.14159265358979,-2.30383461263251,1.5707963267949,179.989895653505,144.423305754278,80.2991568304245
3.14159265358979,-2.30383461263251,1.30899693899575,3.26641352520263,83.2066699810362,106.939752339735
3.14159265358979,-2.0943951023932,-2,170.086922757892,156.337932702942,62.0980725651168
3.14159265358979,-2.0943951023932,-2.0943951023932,54.4649022237951,154.219564042614,153.203880972126
3.14159265358979,-2.0943951023932,-1.83259571459405,77.5210032008113,134.270388551562,154.187641026533
3.14159265358979,-2.0943951023932,-1.5707963267949,78.7993953006291,13.6515936216018,34.1529507137934
3.14159265358979,-2.0943951023932,-1.30899693899575,88.2763378804408,172.520491449857,3.39250993539207
3.14159265358979,-2.0943951023932,2,139.272874305297,79.7678684620859,55.3211224717734
3.14159265358979,-2.0943951023932,2.0943951023932,123.487026567107,54.4753791612943,88.0128376465482
3.14159265358979,-2.0943951023932,1.83259571459405,8.53814039988881,166.343529512648,77.6623863857484
3.14159265358979,-2.0943951023932,1.5707963267949,62.703168744841,114.903912558653,20.8526308763231
3.14159265358979,-2.0943951023932,1.30899693899575,78.7064636030019,11.3999726818807,45.6489566466562
3.14159265358979,-1.88495559215388,-2,85.8710342362827,47.465412080975,178.717976414685
3.14159265358979,-1.88495559215388,-2.0943951023932,144.274367369046,47.6778089371775,92.4360882889647
3.14159265358979,-1.88495559215388,-1.83259571459405,51.4315056209484,64.3109839061547,27.0780375329585
3.14159265358979,-1.88495559215388,-1.5707963267949,123.39140435856,61.8544373593309,81.0121870201492
3.14159265358979,-1.88495559215388,-1.30899693899575,80.6472274399945,174.357489198057,136.469488565363
3.14159265358979,-1.88495559215388,2,65.0037154780945,54.2788765136259,103.361604576454
3.14159265358979,-1.88495559215388,2.0943951023932,18.1797186973432,16.1804489506842,8.44351323346964
3.14159265358979,-1.88495559215388,1.83259571459405,132.503979167616,42.7008121693928,117.20584626034
3.14159265358979,-1.88495559215388,1.5707963267949,22.2369422124023,83.966309356138,156.367975366254
3.14159265358979,-1.88495559215388,1.30899693899575,157.521925853676,58.4688966048186,108.562103805532
3.14159265358979,-1.67551608191456,-2,56.2720879204536,52.9310849876999,13.2356770298422
3.14159265358979,-1.67551608191456,-2.0943951023932,91.8592517927631,21.9375987989866,0.579699871759043
3.14159265358979,-1.67551608191456,-1.83259571459405,113.041802064796,76.031832038553,136.063037866293
3.14159265358979,-1.67551608191456,-1.5707963267949,5.99138188319874,101.719828651459,108.598425116037
3.14159265358979,-1.67551608191456,-1.30899693899575,149.234182151585,35.654891073459,2.34415917448286
3.14159265358979,-1.67551608191456,2,159.072700042073,48.4359419692176,8.7054678832969
3.14159265358979,-1.67551608191456,2.0943951023932,63.9278964381619,117.765713396519,96.3880297676564
3.14159265358979,-1.67551608191456,1.83259571459405,108.557730359549,143.981544690667,40.7257804997865
3.14159265358979,-1.67551608191456,1.5707963267949,165.192359761271,179.326939969275,85.050555460817
3.14159265358979,-1.67551608191456,1.30899693899575,144.331193189581,116.163222028729,176.360581917728
3.14159265358979,-1.46607657167524,-2,39.1874316342022,103.962666010927,120.950305467272
3.14159265358979,-1.46607657167524,-2.0943951023932,79.3909811594307,95.2749332834723,34.6075608843174
3.14159265358979,-1.46607657167524,-1.83259571459405,11.7596590989935,120.941373495915,34.330457183975
3.14159265358979,-1.46607657167524,-1.5707963267949,136.565002858014,77.80581795435,176.984845251674
3.14159265358979,-1.46607657167524,-1.30899693899575,75.934003646925,81.5700697397504,77.4035976430422
3.14159265358979,-1.46607657167524,2,5.25822009337876,175.777312278225,171.907986013284
3.14159265358979,-1.46607657167524,2.0943951023932,115.044257946224,91.7444123347913,67.1598678091844
3.14159265358979,-1.46607657167524,1.83259571459405,10.5641156563702,88.0770919856158,6.01217033511335
3.14159265358979,-1.46607657167524,1.5707963267949,140.835362231463,31.0344168302747,92.3441293117208
3.14159265358979,-1.46607657167524,1.30899693899575,11.6402655280781,47.2111971040636,76.3354607126636
3.14159265358979,-1.25663706143592,-2,130.436896887512,21.8675867194932,90.2791592649777
3.14159265358979,-1.25663706143592,-2.0943951023932,59.9040672818837,32.6586695967804,24.6217905245024
3.14159265358979,-1.25663706143592,-1.83259571459405,65.5576879940204,48.594147877765,93.8775733446645
3.14159265358979,-1.25663706143592,-1.5707963267949,58.3650394038748,77.1129055159941,167.329917266094
3.14159265358979,-1.25663706143592,-1.30899693899575,83.1230112769642,145.992861877646,17.5522531826599
3.14159265358979,-1.25663706143592,2,9.43698699317985,48.7059151051365,108.458467804564
3.14159265358979,-1.25663706143592,2.0943951023932,2.10404927060419,38.3136688551397,96.9764631390447
3.14159265358979,-1.25663706143592,1.83259571459405,171.432306989477,83.6675018070883,11.2622057667049
3.14159265358979,-1.25663706143592,1.5707963267949,174.835481164297,122.806406904706,44.7468937288398
3.14159265358979,-1.25663706143592,1.30899693899575,35.4820974907908,163.076157488545,88.6671259579271
3.14159265358979,-1.0471975511966,-2,129.281666355675,30.7209175608648,149.021877343083
3.14159265358979,-1.0471975511966,-2.0943951023932,97.4938372645749,165.059971928321,132.731121143691
3.14159265358979,-1.0471975511966,-1.83259571459405,50.3197206586978,65.1959402551125,29.9135353183473
3.14159265358979,-1.0471975511966,-1.5707963267949,122.927922500869,39.1024640235702,141.074670758891
3.14159265358979,-1.0471975511966,-1.30899693899575,129.750080176386,145.738028708313,52.4577631101917
3.14159265358979,-1.0471975511966,2,2.32862950579709,14.2975603870142,127.759041001735
3.14159265358979,-1.0471975511966,2.0943951023932,24.1460152151093,112.599463222081,102.482205423613
3.14159265358979,-1.0471975511966,1.83259571459405,144.18644176656,146.949794159138,51.2383732194068
3.14159265358979,-1.0471975511966,1.5707963267949,143.416439238653,14.2490249124715,142.356243941711
3.14159265358979,-1.0471975511966,1.30899693899575,2.27104662450071,0.883926915290192,130.740470523629
3.14159265358979,-0.837758040957278,-2,164.414866539772,71.3829731060905,50.2634145639686
3.14159265358979,-0.837758040957278,-2.0943951023932,146.337815022423,54.0599374775138,125.546506140345
3.14159265358979,-0.837758040957278,-1.83259571459405,178.600354777853,165.755534639716,106.598872999975
3.14159265358979,-0.837758040957278,-1.5707963267949,48.7300826790486,38.1108759240845,56.3911207469729
3.14159265358979,-0.837758040957278,-1.30899693899575,44.1783181044498,132.577367278582,121.200316221853
3.14159265358979,-0.837758040957278,2,129.148603296807,58.7287151227808,48.3320087337745
3.14159265358979,-0.837758040957278,2.0943951023932,66.8329861983746,102.682951570891,114.890780323231
3.14159265358979,-0.837758040957278,1.83259571459405,150.401798327666,54.9306438159126,80.4252408706479
3.14159265358979,-0.837758040957278,1.5707963267949,21.7613225034093,54.1385964771157,142.174869760521
3.14159265358979,-0.837758040957278,1.30899693899575,69.6805434558154,140.090678622261,147.366902787678
3.92699081698724,-2.51327412287183,-2,77.4104110532889,106.632676360584,121.179205440649
3.92699081698724,-2.51327412287183,-2.0943951023932,72.5183642587557,30.4598260934145,41.324044098861
3.92699081698724,-2.51327412287183,-1.83259571459405,58.7717725296411,179.852615984222,170.510353845505
3.92699081698724,-2.51327412287183,-1.5707963267949,1.02815141848551,123.169397144682,58.3610467794484
3.92699081698724,-2.51327412287183,-1.30899693899575,16.540761320425,175.196689391416,24.2953365525191
3.92699081698724,-2.51327412287183,2,32.1042643328716,74.5716471464455,139.662719121475
3.92699081698724,-2.51327412287183,2.0943951023932,152.114554767316,94.8126611207436,166.296420601205
3.92699081698724,-2.51327412287183,1.83259571459405,15.8986059868787,46.9227942059881,151.106504626527
3.92699081698724,-2.51327412287183,1.5707963267949,122.36996019135,81.7045860362893,157.130704202614
3.92699081698724,-2.51327412287183,1.30899693899575,44.7701651455029,164.620422595474,145.969452259881
3.92699081698724,-2.30383461263251,-2,84.2240671072369,70.8830242607381,165.050985285774
3.92699081698724,-2.30383461263251,-2.0943951023932,121.020831983696,125.743061274365,161.915438088974
3.92699081698724,-2.30383461263251,-1.83259571459405,19.7488436013505,170.542080885333,48.2900418321526
3.92699081698724,-2.30383461263251,-1.5707963267949,119.646806872368,19.3597814117272,33.6090111633431
3.92699081698724,-2.30383461263251,-1.30899693899575,44.4000024157715,121.047225477215,58.288542398758
3.92699081698724,-2.30383461263251,2,170.036674653849,82.4119704808852,4.18853291795265
3.92699081698724,-2.30383461263251,2.0943951023932,61.0946261589006,64.467942278522,10.3370775292737
3.92699081698724,-2.30383461263251,1.83259571459405,148.502784908139,124.689127987342,13.3531540965109
3.92699081698724,-2.30383461263251,1.5707963267949,87.4051519098059,52.2500269933224,84.9189423147085
3.92699081698724,-2.30383461263251,1.30899693899575,82.8333293914773,42.1530225968525,175.021780288658
3.92699081698724,-2.0943951023932,-2,31.8305927811495,71.1490036862702,56.8357265261122
3.92699081698724,-2.0943951023932,-2.0943951023932,125.736242778685,98.6294007157585,39.3277894765119
3.92699081698724,-2.0943951023932,-1.83259571459405,57.2397137670403,13.2304164094162,103.332474204615
3.92699081698724,-2.0943951023932,-1.5707963267949,21.4353224732952,70.4645428805896,28.8003286650315
3.92699081698724,-2.0943951023932,-1.30899693899575,136.245865988753,165.329847559192,93.8827952821025
3.92699081698724,-2.0943951023932,2,43.9248427988042,65.0865594045178,104.306902480635
3.92699081698724,-2.0943951023932,2.0943951023932,156.304318381149,22.8429797673416,165.471181781967
3.92699081698724,-2.0943951023932,1.83259571459405,65.9391094388676,12.7286637175896,112.019392070584
3.92699081698724,-2.0943951023932,1.5707963267949,27.9002709307332,35.1091522287299,132.423267966887
3.92699081698724,-2.0943951023932,1.30899693899575,63.1030189978025,66.3199469836371,27.4542230351859
3.92699081698724,-1.88495559215388,-2,104.515463005428,128.838383513949,62.0887412751127
3.92699081698724,-1.88495559215388,-2.0943951023932,132.040842055682,95.8448150700708,79.2153261001321
3.92699081698724,-1.88495559215388,-1.83259571459405,29.4486399224777,76.3784628423513,9.85525702383739
3.92699081698724,-1.88495559215388,-1.5707963267949,166.668405313797,11.4404369373884,141.47855180365
3.92699081698724,-1.88495559215388,-1.30899693899575,167.352648358949,7.30049626855315,55.67250406973
3.92699081698724,-1.88495559215388,2,73.4735965906548,163.365105375307,170.566247999108
3.92699081698724,-1.88495559215388,2.0943951023932,73.6051378989478,132.088330884017,68.4238043964669
3.92699081698724,-1.88495559215388,1.83259571459405,99.4071124534291,93.0636299325082,86.2102703627116
3.92699081698724,-1.88495559215388,1.5707963267949,145.943867896645,129.98605309461,109.016961721948
3.92699081698724,-1.88495559215388,1.30899693899575,4.01049532467926,174.871617316231,177.131654079327
3.92699081698724,-1.67551608191456,-2,142.524035712394,67.7132974398491,145.374538225114
3.92699081698724,-1.67551608191456,-2.0943951023932,174.278895494378,20.1264346143183,59.7429430126395
3.92699081698724,-1.67551608191456,-1.83259571459405,104.628849459244,99.000502116322,13.8800132023281
3.92699081698724,-1.67551608191456,-1.5707963267949,2.88413467634772,102.236161113512,127.340062416982
3.92699081698724,-1.67551608191456,-1.30899693899575,112.590612636744,145.782669075606,126.70164016368
3.92699081698724,-1.67551608191456,2,75.9323656546364,12.8984605593084,158.521463705723
3.92699081698724,-1.67551608191456,2.0943951023932,37.1415677296208,92.315298021577,72.4752085229354
3.92699081698724,-1.67551608191456,1.83259571459405,154.832308461233,51.3578535588397,33.8967242255279
3.92699081698724,-1.67551608191456,1.5707963267949,167.095762308277,39.129094220142,14.8714114123364
3.92699081698724,-1.67551608191456,1.30899693899575,0.556525390160803,125.54164498161,57.6372342857871
3.92699081698724,-1.46607657167524,-2,41.4808064842874,101.654439368842,106.779323949694
3.92699081698724,-1.46607657167524,-2.0943951023932,40.3991468280046,64.0211061564846,140.822117683139
3.92699081698724,-1.46607657167524,-1.83259571459405,126.653160506028,35.7384936125938,177.685180053312
3.92699081698724,-1.46607657167524,-1.5707963267949,127.089112986781,74.0195368029709,46.9154654763792
3.92699081698724,-1.46607657167524,-1.30899693899575,37.9068330134285,98.6357175248887,88.5385071590082
3.92699081698724,-1.46607657167524,2,1.23392574401889,49.0014202869624,7.36900571171799
3.92699081698724,-1.46607657167524,2.0943951023932,124.974928330646,61.7729525663683,56.1556542622009
3.92699081698724,-1.46607657167524,1.83259571459405,33.1717755633011,15.6878814057306,167.65334388824
3.92699081698724,-1.46607657167524,1.5707963267949,77.5546185700452,101.792370029986,55.8809150766863
3.92699081698724,-1.46607657167524,1.30899693899575,47.9164759807307,125.750928337214,157.226816497348
3.92699081698724,-1.25663706143592,-2,13.0163414795829,166.952757099587,54.5612028473361
3.92699081698724,-1.25663706143592,-2.0943951023932,9.54634590293948,159.391585322602,121.890186391893
3.92699081698724,-1.25663706143592,-1.83259571459405,48.044342055534,42.658828849368,13.2350495233125
3.92699081698724,-1.25663706143592,-1.5707963267949,22.0351677814041,44.7755044178756,17.0384003750521
3.92699081698724,-1.25663706143592,-1.30899693899575,179.307435221878,146.943784454987,60.5119032389713
3.92699081698724,-1.25663706143592,2,164.916998305564,8.800045728436,40.7144376450305
3.92699081698724,-1.25663706143592,2.0943951023932,136.222468781296,59.772264537593,29.8866787813693
3.92699081698724,-1.25663706143592,1.83259571459405,178.773493662459,111.270900025993,23.7262779505064
3.92699081698724,-1.25663706143592,1.5707963267949,177.843531160202,42.8110690584118,92.7491462230382
3.92699081698724,-1.25663706143592,1.30899693899575,41.327688056226,18.4716547456893,52.0167198098077
3.92699081698724,-1.0471975511966,-2,167.249953508092,80.3264002611743,177.245096551923
3.92699081698724,-1.0471975511966,-2.0943951023932,118.992539434226,38.9357597068952,20.9187257200262
3.92699081698724,-1.0471975511966,-1.83259571459405,117.132701376541,141.740610175716,130.953108113142
3.92699081698724,-1.0471975511966,-1.5707963267949,75.2324645810601,179.280048059966,34.8495228887836
3.92699081698724,-1.0471975511966,-1.30899693899575,9.10490517472812,5.11907371114353,83.3612934033004
3.92699081698724,-1.0471975511966,2,82.0548884299725,129.185461810222,120.163753835207
3.92699081698724,-1.0471975511966,2.0943951023932,157.778719835687,163.457250368186,144.142083497777
3.92699081698724,-1.0471975511966,1.83259571459405,157.586656534602,24.8300347003477,43.1103116071985
3.92699081698724,-1.0471975511966,1.5707963267949,70.6998915149404,108.753881078287,64.4246361871336
3.92699081698724,-1.0471975511966,1.30899693899575,93.9054661531302,168.954412734681,31.2713305665218
3.92699081698724,-0.837758040957278,-2,80.116856838185,100.000722702162,28.0276081309951
3.92699081698724,-0.837758040957278,-2.0943951023932,114.643820804089,30.4059845147727,42.3463644144227
3.92699081698724,-0.837758040957278,-1.83259571459405,39.4307350748839,112.044745492224,45.8536866267086
3.92699081698724,-0.837758040957278,-1.5707963267949,145.726673169052,97.244732735606,37.1904924972673
3.92699081698724,-0.837758040957278,-1.30899693899575,83.7262670041811,22.8646395576597,117.382540974698
3.92699081698724,-0.837758040957278,2,104.852031651886,140.852105083521,119.851530048422
3.92699081698724,-0.837758040957278,2.0943951023932,64.4329027355649,24.7022514057679,20.9751833906574
3.92699081698724,-0.837758040957278,1.83259571459405,59.7326680069855,174.315113958404,33.7175762122413
3.92699081698724,-0.837758040957278,1.5707963267949,142.975232054068,173.711610200736,153.460514599127
3.92699081698724,-0.837758040957278,1.30899693899575,37.5297220174823,51.5629608611303,61.0561591072506
4.71238898038469,-2.51327412287183,-2,88.6359485772691,126.090412207579,152.962588861477
4.71238898038469,-2.51327412287183,-2.0943951023932,153.876152186461,175.137725300364,1.15503012226298
4.71238898038469,-2.51327412287183,-1.83259571459405,75.4759796452628,16.6449317948123,23.6121297863043
4.71238898038469,-2.51327412287183,-1.5707963267949,172.062276067928,91.2647171109214,128.318342651724
4.71238898038469,-2.51327412287183,-1.30899693899575,66.4885435864595,42.9031464551456,106.817963105043
4.71238898038469,-2.51327412287183,2,96.9569197350536,176.630709985904,59.4289595177599
4.71238898038469,-2.51327412287183,2.0943951023932,99.3603504764589,76.2656670120082,98.624493230473
4.71238898038469,-2.51327412287183,1.83259571459405,91.3735720480619,147.527368863372,131.880682039281
4.71238898038469,-2.51327412287183,1.5707963267949,176.452315182239,98.1023495077293,39.1440853967638
4.71238898038469,-2.51327412287183,1.30899693899575,171.640635214403,172.654367377127,92.5217862815661
4.71238898038469,-2.30383461263251,-2,59.3635179494501,89.086249472365,164.277070075924
4.71238898038469,-2.30383461263251,-2.0943951023932,151.827433391677,141.627026718202,109.48226259478
4.71238898038469,-2.30383461263251,-1.83259571459405,157.59725930946,39.2918925079112,96.6860457280799
4.71238898038469,-2.30383461263251,-1.5707963267949,90.1605084875303,10.8576293250271,157.670587504889
4.71238898038469,-2.30383461263251,-1.30899693899575,36.5482071414561,130.6464664288,114.063042641237
4.71238898038469,-2.30383461263251,2,13.8441979649255,13.9731711036376,140.248164393434
4.71238898038469,-2.30383461263251,2.0943951023932,162.479096671516,97.1282049961832,1.34917409744934
4.71238898038469,-2.30383461263251,1.83259571459405,103.898867781473,141.712428192246,40.5693499876598
4.71238898038469,-2.30383461263251,1.5707963267949,96.0415479145968,68.3223691034506,90.5027117507114
4.71238898038469,-2.30383461263251,1.30899693899575,88.1396366565588,79.1653824362716,64.4308540391928
4.71238898038469,-2.0943951023932,-2,58.9662750704233,122.15968965196,153.714344246323
4.71238898038469,-2.0943951023932,-2.0943951023932,95.6714422776987,164.032617789165,89.6665980330338
4.71238898038469,-2.0943951023932,-1.83259571459405,144.43167485546,129.982989536932,32.7902247940665
4.71238898038469,-2.0943951023932,-1.5707963267949,135.83749384134,62.4142380484547,52.8838081602751
4.71238898038469,-2.0943951023932,-1.30899693899575,8.02981568168887,86.2666301726473,148.107372628486
4.71238898038469,-2.0943951023932,2,70.4600367829212,149.08724634255,51.7651575188207
4.71238898038469,-2.0943951023932,2.0943951023932,97.3669695693654,24.4715016986913,43.9253496605064
4.71238898038469,-2.0943951023932,1.83259571459405,2.4256398261456,173.821927535464,161.48032450318
4.71238898038469,-2.0943951023932,1.5707963267949,143.677917509211,89.5320353491777,158.030735012328
4.71238898038469,-2.0943951023932,1.30899693899575,137.996972430957,36.0354011186945,67.1388584862072
4.71238898038469,-1.88495559215388,-2,117.266757661672,99.7474206815673,19.6797210769575
4.71238898038469,-1.88495559215388,-2.0943951023932,71.8048747637208,162.99041875274,109.713661804581
4.71238898038469,-1.88495559215388,-1.83259571459405,142.20562056384,16.8705098787851,7.72115620938407
4.71238898038469,-1.88495559215388,-1.5707963267949,149.558937255757,172.203232323579,47.1563820035981
4.71238898038469,-1.88495559215388,-1.30899693899575,127.945663196019,138.979561342457,20.4865963515938
4.71238898038469,-1.88495559215388,2,158.611471082541,15.7617276589027,157.884187763847
4.71238898038469,-1.88495559215388,2.0943951023932,66.8918362373069,90.4106770267692,87.3578123111384
4.71238898038469,-1.88495559215388,1.83259571459405,150.692113840169,4.51767624410459,45.1406165902571
4.71238898038469,-1.88495559215388,1.5707963267949,81.6230620394108,131.483011195547,62.680767269035
4.71238898038469,-1.88495559215388,1.30899693899575,138.526222429163,176.143726649891,41.3556271874166
4.71238898038469,-1.67551608191456,-2,127.215900482634,29.579633831198,71.0669569454756
4.71238898038469,-1.67551608191456,-2.0943951023932,157.506421709514,67.3676046471346,0.495621336456531
4.71238898038469,-1.67551608191456,-1.83259571459405,164.9019663818,103.160237736347,175.049423827316
4.71238898038469,-1.67551608191456,-1.5707963267949,59.4409449145092,22.7838832432554,104.250096161968
4.71238898038469,-1.67551608191456,-1.30899693899575,55.1301920877752,39.7836011612628,49.7562431360598
4.71238898038469,-1.67551608191456,2,59.4707241036794,0.27584015220371,77.9761982211024
4.71238898038469,-1.67551608191456,2.0943951023932,143.306368188734,49.9071937883197,97.731061190114
4.71238898038469,-1.67551608191456,1.83259571459405,179.028028145366,36.3279540080782,101.137849471863
4.71238898038469,-1.67551608191456,1.5707963267949,39.4188357312969,29.4830689249743,157.972843813288
4.71238898038469,-1.67551608191456,1.30899693899575,145.022290660396,142.522749732688,78.4844244118644
4.71238898038469,-1.46607657167524,-2,83.3339872918783,110.467741954939,177.417002905633
4.71238898038469,-1.46607657167524,-2.0943951023932,116.012420161204,9.92981577936818,12.3106105871459
4.71238898038469,-1.46607657167524,-1.83259571459405,167.296284041603,51.0098681924378,95.829089443431
4.71238898038469,-1.46607657167524,-1.5707963267949,62.8223710241112,37.8399646219892,120.468754988991
4.71238898038469,-1.46607657167524,-1.30899693899575,124.978569045928,159.958121889752,107.683735319392
4.71238898038469,-1.46607657167524,2,46.2516105739371,97.0719214420305,62.6470923041099
4.71238898038469,-1.46607657167524,2.0943951023932,148.281181967789,3.8833133509316,144.969741435241
4.71238898038469,-1.46607657167524,1.83259571459405,1.3436881873616,85.9923705517617,111.583651985513
4.71238898038469,-1.46607657167524,1.5707963267949,25.6802382918741,37.3278532852251,62.3857756232662
4.71238898038469,-1.46607657167524,1.30899693899575,61.0930598173636,41.3477118526565,29.2375818772947
4.71238898038469,-1.25663706143592,-2,5.03975816436189,2.60058722226802,9.65848958145028
4.71238898038469,-1.25663706143592,-2.0943951023932,45.7591701037502,42.7741852871677,81.2677130528152
4.71238898038469,-1.25663706143592,-1.83259571459405,67.929699574077,174.372305305023,136.917444117738
4.71238898038469,-1.25663706143592,-1.5707963267949,109.460087129591,110.521599872798,123.304170997015
4.71238898038469,-1.25663706143592,-1.30899693899575,99.0550716103297,58.6808445698271,80.7600919842266
4.71238898038469,-1.25663706143592,2,73.6700616251278,17.5213662812897,168.665829583607
4.71238898038469,-1.25663706143592,2.0943951023932,118.483284315985,119.215511557739,140.822655359152
4.71238898038469,-1.25663706143592,1.83259571459405,155.268890339756,12.4992227259041,21.6115715715655
4.71238898038469,-1.25663706143592,1.5707963267949,127.640010595794,53.1922664450331,11.4992158799957
4.71238898038469,-1.25663706143592,1.30899693899575,98.7059343767662,77.0743162170735,88.855522168908
4.71238898038469,-1.0471975511966,-2,37.9598565479961,5.17269208454798,60.8835511604315
4.71238898038469,-1.0471975511966,-2.0943951023932,28.2818698085645,2.47573478989534,33.0735190365585
4.71238898038469,-1.0471975511966,-1.83259571459405,13.6118907121721,11.1540363238501,73.4482787915783
4.71238898038469,-1.0471975511966,-1.5707963267949,142.69351593048,68.4750978592757,164.853810245244
4.71238898038469,-1.0471975511966,-1.30899693899575,13.6007263195515,38.2917856306304,45.7994911177795
4.71238898038469,-1.0471975511966,2,2.84149707773686,51.7564471782311,90.8014680216176
4.71238898038469,-1.0471975511966,2.0943951023932,93.2722163970242,174.297480995583,14.7793415111576
4.71238898038469,-1.0471975511966,1.83259571459405,19.8973015768792,90.9503768395117,121.030026346425
4.71238898038469,-1.0471975511966,1.5707963267949,69.6259845008606,148.552893417106,9.29034405491125
4.71238898038469,-1.0471975511966,1.30899693899575,170.636505776735,91.9398200323389,157.996274045853
4.71238898038469,-0.837758040957278,-2,28.7068293480553,61.4295594117929,102.028684216645
4.71238898038469,-0.837758040957278,-2.0943951023932,12.4452569566074,63.8277366561388,34.8235827291906
4.71238898038469,-0.837758040957278,-1.83259571459405,57.9991168259558,27.6268263155556,10.314507677753
4.71238898038469,-0.837758040957278,-1.5707963267949,151.823299401713,79.4415119494099,39.3727867346188
4.71238898038469,-0.837758040957278,-1.30899693899575,110.425512947895,20.2935639469239,136.55161914538
4.71238898038469,-0.837758040957278,2,153.993033832423,35.7480663398959,11.1281679928464
4.71238898038469,-0.837758040957278,2.0943951023932,75.4432975641916,71.8769629009422,166.022416639235
4.71238898038469,-0.837758040957278,1.83259571459405,85.5331000955179,67.0764647231205,103.772770751999
4.71238898038469,-0.837758040957278,1.5707963267949,121.805799362378,54.5121147721915,160.54589936679
4.71238898038469,-0.837758040957278,1.30899693899575,11.8264295552489,135.549839004659,32.0346180974991
5.49778714378214,-2.51327412287183,-2,152.756246788698,140.918126286246,106.755890835541
5.49778714378214,-2.51327412287183,-2.0943951023932,26.3844862219058,11.156872157995,45.8931103256976
5.49778714378214,-2.51327412287183,-1.83259571459405,69.6593160793587,71.0259748606674,123.930210279135
5.49778714378214,-2.51327412287183,-1.5707963267949,23.008444051396,164.087870026014,69.2112251560918
5.49778714378214,-2.51327412287183,-1.30899693899575,177.930853881873,167.733095474476,60.8986763707113
5.49778714378214,-2.51327412287183,2,101.049564964695,20.3915633136728,59.6909793940308
5.49778714378214,-2.51327412287183,2.0943951023932,94.6272198564918,48.7398647804967,153.112598418601
5.49778714378214,-2.51327412287183,1.83259571459405,58.4899912259549,22.8631068391623,37.0948056575975
5.49778714378214,-2.51327412287183,1.5707963267949,62.6006657997643,125.062638253221,113.884042287295
5.49778714378214,-2.51327412287183,1.30899693899575,175.218243914541,31.1348303004736,130.464164956611
5.49778714378214,-2.30383461263251,-2,79.7462008901337,28.0291797177645,164.753000604864
5.49778714378214,-2.30383461263251,-2.0943951023932,94.2185840864641,19.208666511625,134.758547979257
5.49778714378214,-2.30383461263251,-1.83259571459405,61.9408665900806,55.3639729394044,166.395227623289
5.49778714378214,-2.30383461263251,-1.5707963267949,81.2938889312173,72.2267362652022,158.001582352929
5.49778714378214,-2.30383461263251,-1.30899693899575,19.6012492933891,15.2981418275969,59.0637299739943
5.49778714378214,-2.30383461263251,2,146.627852860512,66.7819448369849,169.992881411979
5.49778714378214,-2.30383461263251,2.0943951023932,165.84755352738,106.708322936869,167.911887356728
5.49778714378214,-2.30383461263251,1.83259571459405,107.390377615004,87.5362754519711,160.730292993927
5.49778714378214,-2.30383461263251,1.5707963267949,10.1532931232786,171.691592972339,23.8870103133951
5.49778714378214,-2.30383461263251,1.30899693899575,168.852697989025,21.5150001884537,53.2265563094297
5.49778714378214,-2.0943951023932,-2,164.30080028631,94.3870043821777,22.6321421808957
5.49778714378214,-2.0943951023932,-2.0943951023932,66.5678183150759,46.425004707737,25.4099161075734
5.49778714378214,-2.0943951023932,-1.83259571459405,67.8605448060952,94.5271857401592,4.77307795090485
5.49778714378214,-2.0943951023932,-1.5707963267949,68.9216009381769,59.8993328832306,85.5315618248067
5.49778714378214,-2.0943951023932,-1.30899693899575,126.82730826001,84.6231733076798,142.810298844597
5.49778714378214,-2.0943951023932,2,96.4163373653131,126.64237473609,53.2550703870726
5.49778714378214,-2.0943951023932,2.0943951023932,22.5888886231011,69.4009807065243,28.7473310607195
5.49778714378214,-2.0943951023932,1.83259571459405,9.32762483173123,68.8726055817072,1.00483639167084
5.49778714378214,-2.0943951023932,1.5707963267949,122.033432623323,138.396953833999,176.78710065163
5.49778714378214,-2.0943951023932,1.30899693899575,104.668648689055,19.1103713280961,113.259408595572
5.49778714378214,-1.88495559215388,-2,8.36276552945136,160.808861352488,141.108033912292
5.49778714378214,-1.88495559215388,-2.0943951023932,45.084765514757,44.4106031591041,146.519424170699
5.49778714378214,-1.88495559215388,-1.83259571459405,98.6120944266756,90.7737622342021,18.8161862125765
5.49778714378214,-1.88495559215388,-1.5707963267949,139.210725421844,78.5706632787674,156.28534861575
5.49778714378214,-1.88495559215388,-1.30899693899575,46.5755993159469,77.2843916982441,135.321700818261
5.49778714378214,-1.88495559215388,2,172.450755609931,56.1418311898549,2.01488192265461
5.49778714378214,-1.88495559215388,2.0943951023932,106.227182418681,160.265674040894,68.4191589565031
5.49778714378214,-1.88495559215388,1.83259571459405,141.807290598678,98.6777118773243,36.9299082634247
5.49778714378214,-1.88495559215388,1.5707963267949,88.6446810909049,92.8531473745094,7.9333364473662
5.49778714378214,-1.88495559215388,1.30899693899575,57.6614556723162,21.6274641474817,69.6859395904277
5.49778714378214,-1.67551608191456,-2,88.476633960961,137.422758498837,99.9709998273781
5.49778714378214,-1.67551608191456,-2.0943951023932,67.4478986646914,10.5740274781222,127.961882825321
5.49778714378214,-1.67551608191456,-1.83259571459405,48.4824639311663,170.400705469545,57.46385865773
5.49778714378214,-1.67551608191456,-1.5707963267949,34.5678331294638,40.4278056450611,133.111631353384
5.49778714378214,-1.67551608191456,-1.30899693899575,71.3366602368287,29.7915222195052,157.056089469645
5.49778714378214,-1.67551608191456,2,87.5247186580079,123.765213999888,13.7107726600172
5.49778714378214,-1.67551608191456,2.0943951023932,78.8260683425114,135.675444852029,152.799064793659
5.49778714378214,-1.67551608191456,1.83259571459405,156.360009303453,56.0480616261168,58.018670284764
5.49778714378214,-1.67551608191456,1.5707963267949,78.9610623262799,52.2468207595925,146.956910830319
5.49778714378214,-1.67551608191456,1.30899693899575,170.418064677828,8.17578242689238,34.2660770263103
5.49778714378214,-1.46607657167524,-2,23.8961816853547,121.303324770229,78.8842566066096
5.49778714378214,-1.46607657167524,-2.0943951023932,162.27416834089,70.7768138727679,44.8652677588631
5.49778714378214,-1.46607657167524,-1.83259571459405,27.2552556684156,56.3039975848943,82.6625057750685
5.49778714378214,-1.46607657167524,-1.5707963267949,127.797601857003,38.5392932941972,27.6870783945688
5.49778714378214,-1.46607657167524,-1.30899693899575,42.7863687440056,57.520170206577,178.183858026255
5.49778714378214,-1.46607657167524,2,99.2175851983954,52.2524369012286,103.401839278019
5.49778714378214,-1.46607657167524,2.0943951023932,27.3715686604217,132.434825287588,29.5890454062764
5.49778714378214,-1.46607657167524,1.83259571459405,141.47246075863,178.669070385839,5.72817994541305
5.49778714378214,-1.46607657167524,1.5707963267949,123.087016615748,25.2563115238693,4.02678527264219
5.49778714378214,-1.46607657167524,1.30899693899575,173.168965583031,134.923467636365,55.8702489849747
5.49778714378214,-1.25663706143592,-2,32.6710290981763,119.314061847991,48.0549011993846
5.49778714378214,-1.25663706143592,-2.0943951023932,133.828811458697,96.3841768741427,14.0422033217023
5.49778714378214,-1.25663706143592,-1.83259571459405,6.90689581455184,160.618022758432,108.533104528128
5.49778714378214,-1.25663706143592,-1.5707963267949,179.903472742515,49.7599751908826,107.783023124842
5.49778714378214,-1.25663706143592,-1.30899693899575,75.9786896274102,148.974582941606,16.2045723276071
5.49778714378214,-1.25663706143592,2,80.2667647077906,156.00361678878,154.487775150517
5.49778714378214,-1.25663706143592,2.0943951023932,64.772060124809,176.874807945782,71.7983349290973
5.49778714378214,-1.25663706143592,1.83259571459405,87.612615104933,28.0309354717094,81.0916460735593
5.49778714378214,-1.25663706143592,1.5707963267949,33.503341398481,13.7684723464246,173.721276091613
5.49778714378214,-1.25663706143592,1.30899693899575,47.193744447748,130.869629166671,164.388959383963
5.49778714378214,-1.0471975511966,-2,45.9146626120195,179.209205964158,71.360491093755
5.49778714378214,-1.0471975511966,-2.0943951023932,106.410151347948,56.3351366655785,7.17132517135448
5.49778714378214,-1.0471975511966,-1.83259571459405,60.2043134570767,102.562442124322,158.217114520279
5.49778714378214,-1.0471975511966,-1.5707963267949,89.2420132501991,160.583592397756,10.8322409188827
5.49778714378214,-1.0471975511966,-1.30899693899575,61.874708152457,144.016721357362,120.700948978041
5.49778714378214,-1.0471975511966,2,105.240380687033,89.9585258686568,52.1160219296809
5.49778714378214,-1.0471975511966,2.0943951023932,167.568210023419,166.407261899862,100.016268385253
5.49778714378214,-1.0471975511966,1.83259571459405,147.208335465741,6.40423056856401,85.9491035515624
5.49778714378214,-1.0471975511966,1.5707963267949,53.6114828586501,73.9667849948749,111.85829865694
5.49778714378214,-1.0471975511966,1.30899693899575,101.634646796962,157.606572751961,63.8705934323147
5.49778714378214,-0.837758040957278,-2,122.584423975046,158.233890712029,51.6180739674646
5.49778714378214,-0.837758040957278,-2.0943951023932,36.4896230168698,109.138859106116,37.0933354421132
5.49778714378214,-0.837758040957278,-1.83259571459405,104.224198376652,51.831667358763,81.6060236007767
5.49778714378214,-0.837758040957278,-1.5707963267949,126.423053512096,74.5935051077813,78.3738549107223
5.49778714378214,-0.837758040957278,-1.30899693899575,6.18979407828103,70.5444799658942,126.519434272547
5.49778714378214,-0.837758040957278,2,18.4905170398193,109.067912933357,124.861396001559
5.49778714378214,-0.837758040957278,2.0943951023932,36.1129164185071,148.045789931265,22.6605413661972
5.49778714378214,-0.837758040957278,1.83259571459405,104.225618324865,28.1113146313745,96.0439466516742
5.49778714378214,-0.837758040957278,1.5707963267949,31.416105734128,97.8607068693293,176.50634354183
5.49778714378214,-0.837758040957278,1.30899693899575,174.725002116783,74.2518007926768,160.448371655897
6.28318530717959,-2.51327412287183,-2,161.274278526436,118.187304357305,55.7673900654031
6.28318530717959,-2.51327412287183,-2.0943951023932,125.411491236813,142.616567899962,4.99831606430929
6.28318530717959,-2.51327412287183,-1.83259571459405,137.679919394636,126.177939559302,112.325466137609
6.28318530717959,-2.51327412287183,-1.5707963267949,99.0319813069942,37.7409367181264,105.687978378551
6.28318530717959,-2.51327412287183,-1.30899693899575,72.3386794880371,16.1221886919403,149.232618062672
6.28318530717959,-2.51327412287183,2,127.094315260437,48.8546181421349,114.537139292649
6.28318530717959,-2.51327412287183,2.0943951023932,32.2418733560824,106.609490716086,119.2277750396
6.28318530717959,-2.51327412287183,1.83259571459405,149.783903846115,138.799601158013,1.98495597656789
6.28318530717959,-2.51327412287183,1.5707963267949,126.852202117412,90.676572067488,118.680726462614
6.28318530717959,-2.51327412287183,1.30899693899575,104.344976370075,21.5438334174628,57.9184284474854
6.28318530717959,-2.30383461263251,-2,42.9409954830236,138.127058064921,95.2130882952707
6.28318530717959,-2.30383461263251,-2.0943951023932,93.604120978038,95.3308228144805,12.1391177474406
6.28318530717959,-2.30383461263251,-1.83259571459405,27.7624738163013,7.29344135328975,127.733608573802
6.28318530717959,-2.30383461263251,-1.5707963267949,104.597011640703,137.793121862945,126.653325019437
6.28318530717959,-2.30383461263251,-1.30899693899575,20.4629478893668,79.6856872429859,126.424636983126
6.28318530717959,-2.30383461263251,2,43.2973800398077,177.417546658005,33.211718411939
6.28318530717959,-2.30383461263251,2.0943951023932,94.1765471783382,32.024445308792,141.887874659858
6.28318530717959,-2.30383461263251,1.83259571459405,85.6614429098039,71.5039765746963,41.9460014365375
6.28318530717959,-2.30383461263251,1.5707963267949,33.6664303050861,90.7961269444104,40.7799040569324
6.28318530717959,-2.30383461263251,1.30899693899575,21.3133772580866,94.4081958791174,152.571371014618
6.28318530717959,-2.0943951023932,-2,151.853334558291,50.6322809110372,96.7291203130638
6.28318530717959,-2.0943951023932,-2.0943951023932,154.947103605636,91.5896742460371,17.4584473462019
6.28318530717959,-2.0943951023932,-1.83259571459405,155.16198744083,62.44110527962,63.0424146190526
6.28318530717959,-2.0943951023932,-1.5707963267949,65.192604735706,166.996608933439,173.003633591937
6.28318530717959,-2.0943951023932,-1.30899693899575,5.26877185694432,48.051494421479,53.9586331834643
6.28318530717959,-2.0943951023932,2,175.656264860195,148.032826526253,41.193211650168
6.28318530717959,-2.0943951023932,2.0943951023932,41.9958391899385,120.092468176737,125.286617818866
6.28318530717959,-2.0943951023932,1.83259571459405,159.493071761523,173.98779962814,28.2977889894563
6.28318530717959,-2.0943951023932,1.5707963267949,155.708856951347,78.2544951192724,38.8853873651215
6.28318530717959,-2.0943951023932,1.30899693899575,26.1837349478831,14.538989095503,116.728102233733
6.28318530717959,-1.88495559215388,-2,69.1789074524054,168.340763295049,93.1208516730883
6.28318530717959,-1.88495559215388,-2.0943951023932,151.787996513272,81.3397659055599,125.035363396519
6.28318530717959,-1.88495559215388,-1.83259571459405,157.282459735584,3.1052794600014,12.8159513234956
6.28318530717959,-1.88495559215388,-1.5707963267949,165.252479778309,35.1058564398928,110.457504654261
6.28318530717959,-1.88495559215388,-1.30899693899575,89.2595668785769,23.3092001640826,164.135319747162
6.28318530717959,-1.88495559215388,2,8.29033922950618,48.0973735738001,74.6138591335066
6.28318530717959,-1.88495559215388,2.0943951023932,115.569391931096,55.3566783061739,67.7556064489473
6.28318530717959,-1.88495559215388,1.83259571459405,27.2142394021813,62.6816760375417,83.5101768733014
6.28318530717959,-1.88495559215388,1.5707963267949,157.684855466835,80.5296086618672,167.516982884171
6.28318530717959,-1.88495559215388,1.30899693899575,47.8448415924986,88.9288756363968,101.413906622404
6.28318530717959,-1.67551608191456,-2,52.4969896082377,65.6947478628101,52.8178101392762
6.28318530717959,-1.67551608191456,-2.0943951023932,154.213421981696,164.99186128494,11.3861635375098
6.28318530717959,-1.67551608191456,-1.83259571459405,104.755949926099,36.2084086796508,145.798676637591
6.28318530717959,-1.67551608191456,-1.5707963267949,8.43638615792423,156.830118758088,83.6117693021152
6.28318530717959,-1.67551608191456,-1.30899693899575,18.3328489665327,136.577086826291,132.617085879476
6.28318530717959,-1.67551608191456,2,77.5421040113629,99.2544112904366,71.0521777652177
6.28318530717959,-1.67551608191456,2.0943951023932,36.9135220803956,39.3723982402441,129.168687179192
6.28318530717959,-1.67551608191456,1.83259571459405,177.6405519969,93.3138061258142,10.8911611146805
6.28318530717959,-1.67551608191456,1.5707963267949,27.060526128127,141.325593470989,136.505771994649
6.28318530717959,-1.67551608191456,1.30899693899575,79.7107957104615,38.0972619774127,56.3834589351944
6.28318530717959,-1.46607657167524,-2,126.868639874787,157.367163157413,79.2947231483772
6.28318530717959,-1.46607657167524,-2.0943951023932,93.7295677825948,108.173564315655,23.0284384847731
6.28318530717959,-1.46607657167524,-1.83259571459405,137.203459001827,29.1189881771594,76.8374002183258
6.28318530717959,-1.46607657167524,-1.5707963267949,127.24197933391,166.563672205853,86.5811431762549
6.28318530717959,-1.46607657167524,-1.30899693899575,104.243578119667,12.3410618599679,19.5237970408974
6.28318530717959,-1.46607657167524,2,171.954605272051,25.3516583130829,37.6410953578922
6.28318530717959,-1.46607657167524,2.0943951023932,75.6299821525523,111.933906037139,153.494340661192
6.28318530717959,-1.46607657167524,1.83259571459405,98.3313421920671,120.633781429631,6.23024458765366
6.28318530717959,-1.46607657167524,1.5707963267949,174.589676883353,177.587401651706,38.7681118506858
6.28318530717959,-1.46607657167524,1.30899693899575,155.592355525589,58.9364136252219,17.8504792726118
6.28318530717959,-1.25663706143592,-2,23.8227716404477,65.6780365896991,50.3856140321994
6.28318530717959,-1.25663706143592,-2.0943951023932,110.488955211192,115.584384220565,152.405123920951
6.28318530717959,-1.25663706143592,-1.83259571459405,167.26820046848,175.770076749046,139.850556700143
6.28318530717959,-1.25663706143592,-1.5707963267949,107.377321404331,77.5324913306071,1.50763659044588
6.28318530717959,-1.25663706143592,-1.30899693899575,28.9696687927789,171.191061152407,46.6115300348043
6.28318530717959,-1.25663706143592,2,66.0637853742139,167.329904738458,151.131162053344
6.28318530717959,-1.25663706143592,2.0943951023932,132.042907239894,31.2439772787401,44.4488385970382
6.28318530717959,-1.25663706143592,1.83259571459405,25.2910059929634,75.2600540867181,30.0567649691383
6.28318530717959,-1.25663706143592,1.5707963267949,3.68972588952022,165.091034686741,175.635422212469
6.28318530717959,-1.25663706143592,1.30899693899575,32.5023868177357,39.2261136516532,55.1592016257286
6.28318530717959,-1.0471975511966,-2,98.2036228942122,98.0761793629085,47.4253357535858
6.28318530717959,-1.0471975511966,-2.0943951023932,159.235101710182,27.3802457353423,100.204189324407
6.28318530717959,-1.0471975511966,-1.83259571459405,18.725031668814,4.37124338699436,152.252771621491
6.28318530717959,-1.0471975511966,-1.5707963267949,11.9463066917274,174.187808313399,32.7373875911408
6.28318530717959,-1.0471975511966,-1.30899693899575,52.0428192577402,59.1946850251256,12.4606170234703
6.28318530717959,-1.0471975511966,2,21.2212864031406,73.513934669012,72.0158283053334
6.28318530717959,-1.0471975511966,2.0943951023932,74.7139021829072,20.758895729763,115.56447587803
6.28318530717959,-1.0471975511966,1.83259571459405,159.549562076098,113.678266302137,146.929210584531
6.28318530717959,-1.0471975511966,1.5707963267949,87.1023608288648,115.607798247755,145.764612265988
6.28318530717959,-1.0471975511966,1.30899693899575,55.4296331001801,174.889514806163,139.982769181958
6.28318530717959,-0.837758040957278,-2,78.7340958843374,76.9443279273493,31.4290534370299
6.28318530717959,-0.837758040957278,-2.0943951023932,139.503204795223,150.697146327959,49.1191719521002
6.28318530717959,-0.837758040957278,-1.83259571459405,3.36004467775594,81.0563685046193,68.8203654873853
6.28318530717959,-0.837758040957278,-1.5707963267949,15.7603231623608,13.2692122089092,70.2456877157939
6.28318530717959,-0.837758040957278,-1.30899693899575,21.2888816371225,62.8604053644706,131.979553833895
6.28318530717959,-0.837758040957278,2,143.85939725822,46.3155493930894,20.5901652387292
6.28318530717959,-0.837758040957278,2.0943951023932,120.322141627491,143.331557387071,167.127352724949
6.28318530717959,-0.837758040957278,1.83259571459405,130.4280483093,81.2106520401687,77.091025271371
6.28318530717959,-0.837758040957278,1.5707963267949,23.6426729610761,158.409968100197,153.954359113792
6.28318530717959,-0.837758040957278,1.30899693899575,71.9299499782434,130.89590682256,86.7833219014228
7.06858347057703,-2.51327412287183,-2,108.244326608876,98.1340784905323,109.594590998063
7.06858347057703,-2.51327412287183,-2.0943951023932,114.107947914823,111.291594017376,117.471564005697
7.06858347057703,-2.51327412287183,-1.83259571459405,52.3838817390943,30.996754778268,146.645587903986
7.06858347057703,-2.51327412287183,-1.5707963267949,136.479589128658,170.350365511142,152.825234134762
7.06858347057703,-2.51327412287183,-1.30899693899575,32.5380489959186,179.266250898383,15.1982923788402
7.06858347057703,-2.51327412287183,2,125.254016703818,113.0621623612,147.241634643568
7.06858347057703,-2.51327412287183,2.0943951023932,90.3355225062431,111.79154703655,9.90226021683346
7.06858347057703,-2.51327412287183,1.83259571459405,4.7174825226544,69.4959127418424,45.2012148600086
7.06858347057703,-2.51327412287183,1.5707963267949,118.318583083383,160.190660273393,46.2785175384347
7.06858347057703,-2.51327412287183,1.30899693899575,45.238829160949,90.4321920648956,59.3142398325216
7.06858347057703,-2.30383461263251,-2,1.90027852447976,12.2772538956544,86.2161927672295
7.06858347057703,-2.30383461263251,-2.0943951023932,67.7524044574706,169.688155719336,172.742711067795
7.06858347057703,-2.30383461263251,-1.83259571459405,14.9613969347112,22.7083908660089,55.2233456751612
7.06858347057703,-2.30383461263251,-1.5707963267949,126.627398958221,132.500421678787,82.9186031174543
7.06858347057703,-2.30383461263251,-1.30899693899575,104.369460521958,163.549274922797,96.2712451645388
7.06858347057703,-2.30383461263251,2,65.0189328049812,102.985881233546,83.6520236159052
7.06858347057703,-2.30383461263251,2.0943951023932,56.3981590375991,16.6732580066195,128.492490868686
7.06858347057703,-2.30383461263251,1.83259571459405,40.603071147729,36.5973613932846,88.9605824874307
7.06858347057703,-2.30383461263251,1.5707963267949,12.407349250302,106.598909705874,129.842819405966
7.06858347057703,-2.30383461263251,1.30899693899575,152.720720395355,67.8138643874003,154.557432777048
7.06858347057703,-2.0943951023932,-2,88.7845683928792,86.8613249015426,34.7783875669183
7.06858347057703,-2.0943951023932,-2.0943951023932,165.450407565091,2.61555404611797,175.996776976126
7.06858347057703,-2.0943951023932,-1.83259571459405,5.57590988074902,131.845662004908,16.6758053273178
7.06858347057703,-2.0943951023932,-1.5707963267949,171.21235792336,92.2904556848409,29.3861470860974
7.06858347057703,-2.0943951023932,-1.30899693899575,61.43505753653,68.1895109511164,50.9895896914868
7.06858347057703,-2.0943951023932,2,126.587964714903,55.024805892858,117.360518490139
7.06858347057703,-2.0943951023932,2.0943951023932,113.725047297952,42.6380752992486,93.9702356317216
7.06858347057703,-2.0943951023932,1.83259571459405,147.118481194426,16.086283699691,156.31016467882
7.06858347057703,-2.0943951023932,1.5707963267949,102.987398589303,17.9225113800062,115.045316113772
7.06858347057703,-2.0943951023932,1.30899693899575,132.187628059148,80.9831535965408,3.12453283590446
7.06858347057703,-1.88495559215388,-2,53.6000805121783,161.361190828353,146.145086652007
7.06858347057703,-1.88495559215388,-2.0943951023932,14.8589297834891,89.7713650679228,141.912040940475
7.06858347057703,-1.88495559215388,-1.83259571459405,164.258293364314,49.9725852956847,101.667853409045
7.06858347057703,-1.88495559215388,-1.5707963267949,20.0582084841439,52.5255527742136,5.14655284136491
7.06858347057703,-1.88495559215388,-1.30899693899575,161.105311301648,36.7799310649394,140.436343530112
7.06858347057703,-1.88495559215388,2,120.269740083235,22.9830698043663,101.462799562708
7.06858347057703,-1.88495559215388,2.0943951023932,142.182579892304,80.5768608074496,163.11855959276
7.06858347057703,-1.88495559215388,1.83259571459405,61.1494310556671,9.41608933889757,12.4366381069019
7.06858347057703,-1.88495559215388,1.5707963267949,56.7956389577843,148.732895139326,92.4328423652416
7.06858347057703,-1.88495559215388,1.30899693899575,12.7177316015834,73.8072724943002,21.687367782014
7.06858347057703,-1.67551608191456,-2,144.364603128568,3.87438343798924,146.323689041346
7.06858347057703,-1.67551608191456,-2.0943951023932,138.317410914569,136.71493075377,23.3820577803451
7.06858347057703,-1.67551608191456,-1.83259571459405,140.367692569335,141.605831588693,44.0047038212996
7.06858347057703,-1.67551608191456,-1.5707963267949,142.792918471371,30.6921579191496,75.921328528966
7.06858347057703,-1.67551608191456,-1.30899693899575,172.195651225611,108.024017893562,33.2280957253967
7.06858347057703,-1.67551608191456,2,5.54045800250511,53.6118278118542,40.1252740263449
7.06858347057703,-1.67551608191456,2.0943951023932,79.5695415310618,16.052143464008,134.204913743282
7.06858347057703,-1.67551608191456,1.83259571459405,47.1502097168874,137.010765430862,99.893673737734
7.06858347057703,-1.67551608191456,1.5707963267949,24.4654408627753,134.398547966811,54.1073498118974
7.06858347057703,-1.67551608191456,1.30899693899575,133.356831361848,42.9818202741252,97.1417241350749
7.06858347057703,-1.46607657167524,-2,18.9059238598362,136.713728613184,34.4379026926102
7.06858347057703,-1.46607657167524,-2.0943951023932,68.7405778092417,144.378663716043,31.8843106429917
7.06858347057703,-1.46607657167524,-1.83259571459405,83.1693199789082,3.37255737649591,24.4815462566314
7.06858347057703,-1.46607657167524,-1.5707963267949,69.6252034593908,163.899659002986,65.277020903707
7.06858347057703,-1.46607657167524,-1.30899693899575,170.952261600259,142.956308721536,13.3999448865064
7.06858347057703,-1.46607657167524,2,178.796589148161,145.015544341255,134.253124780472
7.06858347057703,-1.46607657167524,2.0943951023932,59.452451207991,85.6511252758849,105.541763295886
7.06858347057703,-1.46607657167524,1.83259571459405,136.39899171399,134.980571476591,87.7168388171551
7.06858347057703,-1.46607657167524,1.5707963267949,15.48573083325,168.153721365487,41.7892311356238
7.06858347057703,-1.46607657167524,1.30899693899575,112.309937924108,173.553565327098,70.8138180000352
7.06858347057703,-1.25663706143592,-2,131.334409808826,52.7480610744209,91.2799160267797
7.06858347057703,-1.25663706143592,-2.0943951023932,157.407390963023,56.2520976075399,31.0562765991661
7.06858347057703,-1.25663706143592,-1.83259571459405,0.886490328853449,5.62670994693341,118.851901657897
7.06858347057703,-1.25663706143592,-1.5707963267949,175.158567200083,23.6216332373853,11.4047855024614
7.06858347057703,-1.25663706143592,-1.30899693899575,112.747629806564,96.290873503976,25.0008979292595
7.06858347057703,-1.25663706143592,2,168.791207436297,31.3383256597434,75.4377328757559
7.06858347057703,-1.25663706143592,2.0943951023932,41.1435514191398,24.7878662931911,134.085940715663
7.06858347057703,-1.25663706143592,1.83259571459405,16.7472873339215,95.371468203218,58.3547614985449
7.06858347057703,-1.25663706143592,1.5707963267949,77.489698857827,103.89384952834,160.178221843809
7.06858347057703,-1.25663706143592,1.30899693899575,123.494478886917,94.4544189393756,131.411796007306
7.06858347057703,-1.0471975511966,-2,168.555647315922,77.6007473322442,128.192293178622
7.06858347057703,-1.0471975511966,-2.0943951023932,35.2644633560619,62.1369678144581,102.110433668873
7.06858347057703,-1.0471975511966,-1.83259571459405,46.7557450762449,23.5651989076038,40.2015840464701
7.06858347057703,-1.0471975511966,-1.5707963267949,143.071466659393,119.485898691272,81.7134823390559
7.06858347057703,-1.0471975511966,-1.30899693899575,131.277566327899,103.033408320728,66.4962593105742
7.06858347057703,-1.0471975511966,2,135.586187300608,40.1712737843327,92.1669402409203
7.06858347057703,-1.0471975511966,2.0943951023932,36.5726431634468,63.0141916567047,52.3917781076393
7.06858347057703,-1.0471975511966,1.83259571459405,59.4863112139091,55.4324823668961,89.721049654791
7.06858347057703,-1.0471975511966,1.5707963267949,73.1396243983159,5.27710752147674,76.9037524694613
7.06858347057703,-1.0471975511966,1.30899693899575,161.449512666222,159.078785435624,112.590036143595
7.06858347057703,-0.837758040957278,-2,149.595294210047,8.75074069741541,135.931536276197
7.06858347057703,-0.837758040957278,-2.0943951023932,132.294676718159,142.497842641365,126.324751450658
7.06858347057703,-0.837758040957278,-1.83259571459405,173.533315452789,144.175668553159,174.412568313245
7.06858347057703,-0.837758040957278,-1.5707963267949,130.192617179259,29.9613493635851,135.530892749741
7.06858347057703,-0.837758040957278,-1.30899693899575,13.0162105030441,106.094594365503,97.513237470621
7.06858347057703,-0.837758040957278,2,45.7948597272792,167.204984689057,80.0071544801538
7.06858347057703,-0.837758040957278,2.0943951023932,149.773976565817,48.1964356829873,6.91256381046933
7.06858347057703,-0.837758040957278,1.83259571459405,15.6676409252136,12.6835021665685,66.7325112694721
7.06858347057703,-0.837758040957278,1.5707963267949,66.4624557161438,60.1835143955613,96.6694074740835
7.06858347057703,-0.837758040957278,1.30899693899575,85.5850270666205,30.9934163151261,29.2609870046025
7.85398163397448,-2.51327412287183,-2,157.07764097298,56.9256762689818,26.0021401184937
7.85398163397448,-2.51327412287183,-2.0943951023932,19.2848633027022,172.786289526961,86.0396990011064
7.85398163397448,-2.51327412287183,-1.83259571459405,73.0952873379556,1.82139887439473,153.924026498258
7.85398163397448,-2.51327412287183,-1.5707963267949,93.1723228702655,36.5366806168696,65.3618310828205
7.85398163397448,-2.51327412287183,-1.30899693899575,19.8354323324454,141.056143279811,147.982617591855
7.85398163397448,-2.51327412287183,2,102.924237828081,136.049894381484,138.693478809612
7.85398163397448,-2.51327412287183,2.0943951023932,159.499286691283,14.8084910837479,69.8699671307842
7.85398163397448,-2.51327412287183,1.83259571459405,24.7909058182871,156.790008246261,144.465015863169
7.85398163397448,-2.51327412287183,1.5707963267949,173.345103617551,70.2542908832301,155.209948911183
7.85398163397448,-2.51327412287183,1.30899693899575,146.264677764599,103.160049514284,25.1152978668425
7.85398163397448,-2.30383461263251,-2,12.2785857836903,119.162772494858,136.627668101131
7.85398163397448,-2.30383461263251,-2.0943951023932,117.892694361533,22.9605981671544,78.9127687207724
7.85398163397448,-2.30383461263251,-1.83259571459405,21.1202654858687,18.5820614791237,89.6626700880533
7.85398163397448,-2.30383461263251,-1.5707963267949,22.2608254127756,114.479580296938,21.8609441389233
7.85398163397448,-2.30383461263251,-1.30899693899575,172.345304491491,118.390184370782,88.079494907404
7.85398163397448,-2.30383461263251,2,26.1240835603699,111.263100152357,28.991484867559
7.85398163397448,-2.30383461263251,2.0943951023932,130.312338173757,2.12554157886525,1.5929436002388
7.85398163397448,-2.30383461263251,1.83259571459405,175.23212451258,97.3477873475848,116.514704538417
7.85398163397448,-2.30383461263251,1.5707963267949,155.653681851733,74.5477035219519,10.5062722274236
7.85398163397448,-2.30383461263251,1.30899693899575,35.1046648070133,98.5774066274084,147.929065266872
7.85398163397448,-2.0943951023932,-2,118.821579166146,103.998403143394,1.17419351468411
7.85398163397448,-2.0943951023932,-2.0943951023932,141.080142360241,54.9468185580841,31.2520835475208
7.85398163397448,-2.0943951023932,-1.83259571459405,75.9249045078814,25.5879521875766,48.4820408873278
7.85398163397448,-2.0943951023932,-1.5707963267949,89.7385694453302,85.6624534037085,46.7502313263335
7.85398163397448,-2.0943951023932,-1.30899693899575,60.6678556279566,11.6987818811301,65.3408826619126
7.85398163397448,-2.0943951023932,2,133.343327776994,148.836538125869,150.802719053614
7.85398163397448,-2.0943951023932,2.0943951023932,118.635408575745,11.0667539321431,152.038752864685
7.85398163397448,-2.0943951023932,1.83259571459405,113.492838549298,169.866040909586,68.3697138926381
7.85398163397448,-2.0943951023932,1.5707963267949,71.3990236861113,81.9409808245787,143.007450801007
7.85398163397448,-2.0943951023932,1.30899693899575,35.4147967839755,173.265669136046,103.098918647874
7.85398163397448,-1.88495559215388,-2,159.454040951258,35.9376345812379,122.249168868044
7.85398163397448,-1.88495559215388,-2.0943951023932,111.73029691533,86.4790865364708,87.1026686579735
7.85398163397448,-1.88495559215388,-1.83259571459405,168.175761662304,57.7839713560241,66.1318998430958
7.85398163397448,-1.88495559215388,-1.5707963267949,53.5267517301831,51.454268905399,95.9237395781306
7.85398163397448,-1.88495559215388,-1.30899693899575,69.2238562702306,131.338727738491,60.0072586921277
7.85398163397448,-1.88495559215388,2,30.2575006116602,114.516889555842,53.3090080622504
7.85398163397448,-1.88495559215388,2.0943951023932,118.74002000967,60.8530432564652,93.7928073707228
7.85398163397448,-1.88495559215388,1.83259571459405,48.9109722822519,51.3155739625317,132.582794894059
7.85398163397448,-1.88495559215388,1.5707963267949,171.307679984868,152.964269942526,171.152950264789
7.85398163397448,-1.88495559215388,1.30899693899575,115.87826491242,152.557434197127,166.641568670455
7.85398163397448,-1.67551608191456,-2,147.05959104569,100.461567158915,40.3693903166678
7.85398163397448,-1.67551608191456,-2.0943951023932,3.52957347200392,47.8741798993728,39.2252640819423
7.85398163397448,-1.67551608191456,-1.83259571459405,135.072210274905,19.1329101054039,150.827425569055
7.85398163397448,-1.67551608191456,-1.5707963267949,128.222999619821,70.690570779291,96.4680328473495
7.85398163397448,-1.67551608191456,-1.30899693899575,117.248976641552,45.1362768382341,10.7609351385375
7.85398163397448,-1.67551608191456,2,3.81016977924902,177.079415522673,105.650762478932
7.85398163397448,-1.67551608191456,2.0943951023932,156.749184387143,170.984902303845,59.3510573292096
7.85398163397448,-1.67551608191456,1.83259571459405,119.061701102434,104.115093012674,112.022568283626
7.85398163397448,-1.67551608191456,1.5707963267949,88.0910556725276,92.7685617533017,147.664173193744
7.85398163397448,-1.67551608191456,1.30899693899575,77.965771666133,152.074578426606,126.176106991353
7.85398163397448,-1.46607657167524,-2,15.4104458047333,39.2242268945374,89.6108705086827
7.85398163397448,-1.46607657167524,-2.0943951023932,109.705748187502,167.594479938634,114.483834054401
7.85398163397448,-1.46607657167524,-1.83259571459405,29.8812486349502,37.1158263295652,179.015885832525
7.85398163397448,-1.46607657167524,-1.5707963267949,109.581723636605,164.880353141629,65.9205271037669
7.85398163397448,-1.46607657167524,-1.30899693899575,175.365186763679,141.348255963258,57.6623586948744
7.85398163397448,-1.46607657167524,2,166.629663680816,174.133681548613,159.740851480788
7.85398163397448,-1.46607657167524,2.0943951023932,13.0795916375397,76.9797156517378,93.0634582054684
7.85398163397448,-1.46607657167524,1.83259571459405,50.291164182101,40.2357674804674,62.8242912021599
7.85398163397448,-1.46607657167524,1.5707963267949,101.328678293851,94.7120773082769,126.03899806631
7.85398163397448,-1.46607657167524,1.30899693899575,113.648768666461,3.00026685327263,172.112674566526
7.85398163397448,-1.25663706143592,-2,142.970246998929,179.800140761174,38.5143185817064
7.85398163397448,-1.25663706143592,-2.0943951023932,120.894085513276,142.127738021763,42.0556181910756
7.85398163397448,-1.25663706143592,-1.83259571459405,122.298486150801,115.781485569405,179.051463607654
7.85398163397448,-1.25663706143592,-1.5707963267949,58.5611405998784,125.211924479925,82.6444099366561
7.85398163397448,-1.25663706143592,-1.30899693899575,52.5150914854789,86.9411220937211,35.1036488309579
7.85398163397448,-1.25663706143592,2,2.54006058461404,169.780013667551,94.5386544303526
7.85398163397448,-1.25663706143592,2.0943951023932,156.569013637208,23.3791639578489,58.0538759003853
7.85398163397448,-1.25663706143592,1.83259571459405,41.9121773890032,12.2545192528061,143.673405197772
7.85398163397448,-1.25663706143592,1.5707963267949,171.379570055482,58.4460274857607,0.747293108114237
7.85398163397448,-1.25663706143592,1.30899693899575,175.608347002278,152.040198676583,49.7553027638938
7.85398163397448,-1.0471975511966,-2,152.529563436664,72.0276875457656,179.723657020162
7.85398163397448,-1.0471975511966,-2.0943951023932,52.2283330637731,55.0455064841251,155.282480373969
7.85398163397448,-1.0471975511966,-1.83259571459405,123.762285555533,113.373848901752,3.65019664263547
7.85398163397448,-1.0471975511966,-1.5707963267949,5.2946189170021,25.5941632711461,66.7834390124092
7.85398163397448,-1.0471975511966,-1.30899693899575,78.55416048704,92.8941890865074,122.877362266902
7.85398163397448,-1.0471975511966,2,75.8351465500026,157.862953024325,133.205060159848
7.85398163397448,-1.0471975511966,2.0943951023932,26.8622678953982,63.1283173806873,147.04513355435
7.85398163397448,-1.0471975511966,1.83259571459405,32.8466634268398,80.8654278294305,53.8638970770196
7.85398163397448,-1.0471975511966,1.5707963267949,31.920864138375,24.527437386015,131.881031683001
7.85398163397448,-1.0471975511966,1.30899693899575,141.975818969683,31.8431944803996,105.131954685549
7.85398163397448,-0.837758040957278,-2,108.922822708811,38.179666962919,56.5628888801556
7.85398163397448,-0.837758040957278,-2.0943951023932,173.44045269322,159.228581707622,106.567699993715
7.85398163397448,-0.837758040957278,-1.83259571459405,91.1430098136416,15.9883152657355,2.78909947118555
7.85398163397448,-0.837758040957278,-1.5707963267949,134.425843632495,100.835821807045,18.1293186832755
7.85398163397448,-0.837758040957278,-1.30899693899575,10.1627520221542,167.86580103697,149.689491866442
7.85398163397448,-0.837758040957278,2,95.8720114318851,163.664021116923,84.1195219164309
7.85398163397448,-0.837758040957278,2.0943951023932,62.9635909506701,102.426524196183,86.2786601656955
7.85398163397448,-0.837758040957278,1.83259571459405,116.570755907989,7.03828425144291,127.128700057513
7.85398163397448,-0.837758040957278,1.5707963267949,13.5170302512548,101.50244406818,144.588990007113
7.85398163397448,-0.837758040957278,1.30899693899575,144.479442180945,67.9669417559018,155.296693092145
8.63937979737193,-2.51327412287183,-2,82.4745828901163,0.783652861726454,174.707262010836
8.63937979737193,-2.51327412287183,-2.0943951023932,62.527143243617,147.669058530729,173.836338034662
8.63937979737193,-2.51327412287183,-1.83259571459405,117.155412495876,163.436710723179,10.6214186714214
8.63937979737193,-2.51327412287183,-1.5707963267949,125.665312673507,107.246994132836,11.33307926087
8.63937979737193,-2.51327412287183,-1.30899693899575,14.0841106984164,86.3330414994529,152.937428703155
8.63937979737193,-2.51327412287183,2,52.9363762762752,160.826839127186,146.701351279349
8.63937979737193,-2.51327412287183,2.0943951023932,142.240902032276,143.263433336455,106.281819550816
8.63937979737193,-2.51327412287183,1.83259571459405,179.805023889346,65.9001015451181,105.031134569607
8.63937979737193,-2.51327412287183,1.5707963267949,138.105430863231,82.4142177329614,109.412901912097
8.63937979737193,-2.51327412287183,1.30899693899575,131.614091557794,4.91908747395659,106.795333268683
8.63937979737193,-2.30383461263251,-2,32.9247380560513,95.4285375608643,15.7883320292451
8.63937979737193,-2.30383461263251,-2.0943951023932,34.9478725898387,122.061642455229,144.804810193358
8.63937979737193,-2.30383461263251,-1.83259571459405,161.281754160328,94.5706763556867,101.549296159303
8.63937979737193,-2.30383461263251,-1.5707963267949,111.259040888576,165.118379954184,142.573282276925
8.63937979737193,-2.30383461263251,-1.30899693899575,42.8797696800058,79.6327383457438,145.803319785265
8.63937979737193,-2.30383461263251,2,160.836833493192,28.5462029140499,167.023672016287
8.63937979737193,-2.30383461263251,2.0943951023932,142.466437891747,25.0926477394318,97.4242314081008
8.63937979737193,-2.30383461263251,1.83259571459405,103.504094412838,53.6395426133814,59.7680209778298
8.63937979737193,-2.30383461263251,1.5707963267949,37.6143939823913,136.42815857677,73.5947094376482
8.63937979737193,-2.30383461263251,1.30899693899575,127.594553754925,37.6620497775841,85.2790470043733
8.63937979737193,-2.0943951023932,-2,136.617908235681,141.143301718959,102.717605366868
8.63937979737193,-2.0943951023932,-2.0943951023932,34.3473409906628,64.1790244130632,177.241635018704
8.63937979737193,-2.0943951023932,-1.83259571459405,40.2130471347002,172.967287328785,18.1777182400145
8.63937979737193,-2.0943951023932,-1.5707963267949,121.599771104183,140.840177113559,5.60349276636241
8.63937979737193,-2.0943951023932,-1.30899693899575,31.4838017817595,169.610187864453,142.247904621072
